;FLAVOR:Marlin
;TIME:1288
;Filament used: 0.767057m
;Layer height: 0.2
;MINX:9.011
;MINY:9.01
;MINZ:0.2
;MAXX:290.989
;MAXY:290.989
;MAXZ:0.2
;Generated with Cura_SteamEngine 5.4.0
M82 ;absolute extrusion mode
M104 S160  ; Start warming extruder to 160
M190 S50 ; Wait for Heat Bed temperature
G28        ; Home all axes
G29 A      ; Activate the UBL System.
G29 L1     ; Load UBL
G29 J2     ; 4-point level
G29 F10.0  ; Fade to 10mm
G92 E0     ; Reset Extruder

G1 Z2.0 F3000                   ; Move Z Axis up little to prevent scratching of Heat Bed
G1 X0.1 Y20 Z0.3 F5000.0        ; Move to start position
M109 S200 ; Wait for extruder temperature
G1 X0.1 Y200.0 Z0.3 F1500.0 E15 ; Draw the first line
G1 X0.4 Y200.0 Z0.3 F5000.0     ; Move to side a little
G1 X0.4 Y20 Z0.3 F1500.0 E30    ; Draw the second line
G92 E0                          ; Reset Extruder
G1 Z2.0 F3000                   ; Move Z Axis up little to prevent scratching of Heat Bed
G1 X5 Y20 Z0.3 F5000.0          ; Move over to prevent blob squish
G92 E0
G92 E0
G1 F2700 E-5
;LAYER_COUNT:1
;LAYER:0
M107
G0 F6000 X15.31 Y15.019 Z0.2
;TYPE:SKIRT
G1 F2700 E0
G1 F1200 X15.804 Y14.55 E0.02266
G1 X16.332 Y14.082 E0.04612
G1 X16.909 Y13.604 E0.07104
G1 X17.561 Y13.103 E0.09839
G1 X18.359 Y12.541 E0.13086
G1 X19.033 Y12.103 E0.15759
G1 X19.712 Y11.705 E0.18377
G1 X20.443 Y11.32 E0.21125
G1 X21.076 Y11.011 E0.23467
G1 X21.777 Y10.699 E0.2602
G1 X22.723 Y10.319 E0.2941
G1 X23.592 Y10.012 E0.32476
G1 X24.081 Y9.863 E0.34176
G1 X24.795 Y9.672 E0.36634
G1 X25.636 Y9.477 E0.39506
G1 X26.412 Y9.328 E0.42134
G1 X27.146 Y9.214 E0.44604
G1 X27.862 Y9.127 E0.47003
G1 X28.545 Y9.068 E0.49283
G1 X29.269 Y9.03 E0.51695
G1 X29.941 Y9.017 E0.5393
G1 X30.67 Y9.027 E0.56355
G1 X31.376 Y9.062 E0.58706
G1 X32.077 Y9.122 E0.61046
G1 X32.76 Y9.2 E0.63333
G1 X33.426 Y9.299 E0.65572
G1 X34.158 Y9.433 E0.68047
G1 X34.886 Y9.591 E0.70525
G1 X36.043 Y9.887 E0.74497
G1 X37.649 Y10.327 E0.80035
G1 X40.149 Y10.938 E0.88595
G1 X42.621 Y11.467 E0.97003
G1 X45.064 Y11.919 E1.05267
G1 X47.533 Y12.304 E1.13578
G1 X50.064 Y12.625 E1.22063
G1 X52.56 Y12.871 E1.30405
G1 X55.054 Y13.045 E1.38721
G1 X57.596 Y13.151 E1.47183
G1 X60.085 Y13.184 E1.55462
G1 X62.593 Y13.145 E1.63804
G1 X65.15 Y13.035 E1.72317
G1 X67.659 Y12.854 E1.80684
G1 X70.13 Y12.607 E1.88943
G1 X72.645 Y12.282 E1.97378
G1 X75.139 Y11.89 E2.05775
G1 X77.572 Y11.435 E2.14007
G1 X80.104 Y10.888 E2.22623
G1 X82.475 Y10.305 E2.30744
G1 X84.807 Y9.67 E2.38782
G1 X85.518 Y9.503 E2.41211
G1 X86.45 Y9.317 E2.44372
G1 X87.314 Y9.182 E2.47281
G1 X87.856 Y9.119 E2.49096
G1 X88.634 Y9.059 E2.51691
G1 X89.601 Y9.02 E2.5491
G1 X90.289 Y9.011 E2.57198
G1 X91.266 Y9.047 E2.6045
G1 X91.795 Y9.086 E2.62214
G1 X92.371 Y9.144 E2.6414
G1 X93.318 Y9.272 E2.67318
G1 X93.81 Y9.358 E2.6898
G1 X94.466 Y9.495 E2.71208
G1 X95.547 Y9.758 E2.74909
G1 X96.566 Y10.037 E2.78423
G1 X99.094 Y10.684 E2.87102
G1 X101.553 Y11.242 E2.95488
G1 X104.04 Y11.732 E3.03919
G1 X106.461 Y12.138 E3.12084
G1 X108.982 Y12.488 E3.20549
G1 X111.512 Y12.768 E3.29015
G1 X114.003 Y12.973 E3.37329
G1 X116.509 Y13.105 E3.45675
G1 X119.048 Y13.169 E3.54123
G1 X121.538 Y13.16 E3.62404
G1 X124.07 Y13.081 E3.7083
G1 X126.613 Y12.929 E3.79303
G1 X129.046 Y12.714 E3.87427
G1 X131.595 Y12.415 E3.95963
G1 X134.083 Y12.052 E4.04326
G1 X136.532 Y11.624 E4.12595
G1 X139.025 Y11.116 E4.21057
G1 X141.42 Y10.557 E4.29237
G1 X143.424 Y10.025 E4.36133
G1 X143.633 Y9.979 E4.36845
G1 X144.5 Y9.746 E4.39831
G1 X145.552 Y9.495 E4.43428
G1 X146.258 Y9.354 E4.45822
G1 X147.006 Y9.232 E4.48343
G1 X147.719 Y9.141 E4.50734
G1 X148.395 Y9.077 E4.52992
G1 X149.014 Y9.033 E4.55056
G1 X149.563 Y9.014 E4.56883
G1 X150.336 Y9.013 E4.59454
G1 X151.134 Y9.046 E4.62111
G1 X151.885 Y9.101 E4.64615
G1 X152.595 Y9.179 E4.66991
G1 X153.306 Y9.28 E4.69379
G1 X153.991 Y9.399 E4.71692
G1 X154.617 Y9.53 E4.73819
G1 X155.343 Y9.71 E4.76307
G1 X158.255 Y10.493 E4.86336
G1 X160.75 Y11.081 E4.94862
G1 X163.2 Y11.588 E5.03183
G1 X165.663 Y12.023 E5.11502
G1 X168.152 Y12.393 E5.19871
G1 X170.679 Y12.696 E5.28337
G1 X173.16 Y12.922 E5.36623
G1 X175.657 Y13.077 E5.44944
G1 X178.2 Y13.164 E5.53407
G1 X180.722 Y13.179 E5.61795
G1 X183.222 Y13.123 E5.70112
G1 X185.727 Y12.995 E5.78455
G1 X188.236 Y12.797 E5.86825
G1 X190.784 Y12.522 E5.95349
G1 X193.246 Y12.186 E6.03614
G1 X195.702 Y11.78 E6.11893
G1 X198.225 Y11.292 E6.20441
G1 X200.601 Y10.759 E6.2854
G1 X203.474 Y10.009 E6.38415
G1 X203.721 Y9.956 E6.39256
G1 X204.5 Y9.746 E6.41939
G1 X205.552 Y9.495 E6.45536
G1 X206.258 Y9.354 E6.47931
G1 X207.006 Y9.232 E6.50452
G1 X207.719 Y9.141 E6.52842
G1 X208.395 Y9.077 E6.55101
G1 X209.014 Y9.033 E6.57165
G1 X209.563 Y9.014 E6.58992
G1 X210.336 Y9.013 E6.61563
G1 X211.134 Y9.046 E6.64219
G1 X211.885 Y9.101 E6.66724
G1 X212.595 Y9.179 E6.69099
G1 X213.306 Y9.28 E6.71488
G1 X213.991 Y9.399 E6.738
G1 X214.617 Y9.53 E6.75928
G1 X215.343 Y9.71 E6.78415
G1 X218.255 Y10.493 E6.88445
G1 X220.75 Y11.081 E6.9697
G1 X223.2 Y11.588 E7.05292
G1 X225.663 Y12.023 E7.13611
G1 X228.152 Y12.393 E7.2198
G1 X230.679 Y12.696 E7.30445
G1 X233.16 Y12.922 E7.38731
G1 X235.657 Y13.077 E7.47052
G1 X238.2 Y13.164 E7.55515
G1 X240.722 Y13.179 E7.63903
G1 X243.222 Y13.123 E7.72221
G1 X245.727 Y12.995 E7.80563
G1 X248.236 Y12.797 E7.88934
G1 X250.784 Y12.522 E7.97458
G1 X253.246 Y12.186 E8.05722
G1 X255.702 Y11.78 E8.14002
G1 X258.225 Y11.292 E8.22549
G1 X260.601 Y10.759 E8.30648
G1 X263.474 Y10.009 E8.40524
G1 X263.721 Y9.956 E8.41364
G1 X264.5 Y9.746 E8.44048
G1 X265.552 Y9.495 E8.47645
G1 X266.258 Y9.354 E8.50039
G1 X267.006 Y9.232 E8.5256
G1 X267.719 Y9.141 E8.54951
G1 X268.395 Y9.077 E8.57209
G1 X269.022 Y9.033 E8.593
G1 X269.926 Y9.01 E8.62307
G1 X270.642 Y9.021 E8.64689
G1 X271.134 Y9.046 E8.66328
G1 X271.885 Y9.101 E8.68832
G1 X272.595 Y9.179 E8.71208
G1 X273.306 Y9.28 E8.73596
G1 X273.991 Y9.399 E8.75909
G1 X274.617 Y9.53 E8.78036
G1 X275.359 Y9.713 E8.80578
G1 X276.067 Y9.914 E8.83026
G1 X276.717 Y10.122 E8.85296
G1 X277.338 Y10.343 E8.87488
G1 X278.01 Y10.607 E8.89889
G1 X278.666 Y10.891 E8.92267
G1 X279.331 Y11.207 E8.94716
G1 X279.973 Y11.54 E8.97121
G1 X280.568 Y11.873 E8.99389
G1 X281.129 Y12.212 E9.01569
G1 X281.75 Y12.617 E9.04035
G1 X282.331 Y13.025 E9.06396
G1 X282.893 Y13.449 E9.08738
G1 X283.464 Y13.909 E9.11177
G1 X284.007 Y14.378 E9.13563
G1 X284.488 Y14.822 E9.1574
G1 X284.98 Y15.309 E9.18043
G1 X285.45 Y15.804 E9.20313
G1 X285.918 Y16.332 E9.2266
G1 X286.396 Y16.91 E9.25154
G1 X286.893 Y17.558 E9.27871
G1 X287.458 Y18.356 E9.31123
G1 X287.941 Y19.105 E9.34087
G1 X288.199 Y19.546 E9.35786
G1 X288.543 Y20.177 E9.38177
G1 X288.947 Y20.986 E9.41184
G1 X289.271 Y21.699 E9.43789
G1 X289.567 Y22.419 E9.46378
G1 X289.8 Y23.032 E9.48559
G1 X289.957 Y23.494 E9.50182
G1 X290.169 Y24.189 E9.52599
G1 X290.39 Y25.045 E9.55539
G1 X290.539 Y25.706 E9.57793
G1 X290.672 Y26.411 E9.60179
G1 X290.786 Y27.145 E9.6265
G1 X290.873 Y27.86 E9.65045
G1 X290.932 Y28.542 E9.67322
G1 X290.97 Y29.268 E9.6974
G1 X290.983 Y29.94 E9.71976
G1 X290.974 Y30.657 E9.74361
G1 X290.94 Y31.36 E9.76702
G1 X290.878 Y32.081 E9.79109
G1 X290.799 Y32.768 E9.81409
G1 X290.701 Y33.426 E9.83621
G1 X290.567 Y34.158 E9.86096
G1 X290.409 Y34.886 E9.88574
G1 X290.113 Y36.043 E9.92546
G1 X289.666 Y37.674 E9.98171
G1 X289.062 Y40.149 E10.06644
G1 X288.533 Y42.619 E10.15046
G1 X288.077 Y45.086 E10.2339
G1 X287.692 Y47.557 E10.31708
G1 X287.375 Y50.064 E10.40113
G1 X287.127 Y52.576 E10.48508
G1 X286.955 Y55.054 E10.5677
G1 X286.849 Y57.596 E10.65232
G1 X286.816 Y60.097 E10.73551
G1 X286.855 Y62.594 E10.81857
G1 X286.963 Y65.125 E10.90283
G1 X287.144 Y67.645 E10.98686
G1 X287.393 Y70.13 E11.06993
G1 X287.718 Y72.645 E11.15427
G1 X288.108 Y75.131 E11.23797
G1 X288.564 Y77.569 E11.32046
G1 X289.111 Y80.103 E11.40668
G1 X289.695 Y82.475 E11.48793
G1 X290.33 Y84.807 E11.56832
G1 X290.496 Y85.512 E11.59241
G1 X290.682 Y86.443 E11.62399
G1 X290.818 Y87.315 E11.65334
G1 X290.881 Y87.858 E11.67152
G1 X290.941 Y88.633 E11.69737
G1 X290.98 Y89.6 E11.72956
G1 X290.989 Y90.289 E11.75248
G1 X290.953 Y91.266 E11.785
G1 X290.915 Y91.784 E11.80227
G1 X290.858 Y92.356 E11.82139
G1 X290.727 Y93.32 E11.85375
G1 X290.639 Y93.825 E11.8708
G1 X290.508 Y94.45 E11.89204
G1 X290.236 Y95.576 E11.93057
G1 X289.941 Y96.652 E11.96768
G1 X289.313 Y99.103 E12.05183
G1 X288.75 Y101.588 E12.13658
G1 X288.262 Y104.064 E12.22051
G1 X287.845 Y106.544 E12.30416
G1 X287.507 Y108.99 E12.38628
G1 X287.225 Y111.548 E12.47188
G1 X287.02 Y114.032 E12.55478
G1 X286.888 Y116.538 E12.63824
G1 X286.824 Y119.079 E12.72278
G1 X286.833 Y121.567 E12.80553
G1 X286.912 Y124.089 E12.88946
G1 X287.063 Y126.625 E12.97395
G1 X287.281 Y129.092 E13.05633
G1 X287.576 Y131.609 E13.14062
G1 X287.933 Y134.064 E13.22313
G1 X288.371 Y136.572 E13.30781
G1 X288.879 Y139.062 E13.39233
G1 X289.436 Y141.452 E13.47395
G1 X290.086 Y143.928 E13.5591
G1 X290.317 Y144.758 E13.58775
G1 X290.492 Y145.492 E13.61285
G1 X290.682 Y146.443 E13.6451
G1 X290.818 Y147.315 E13.67446
G1 X290.881 Y147.858 E13.69264
G1 X290.941 Y148.633 E13.71849
G1 X290.98 Y149.6 E13.75068
G1 X290.989 Y150.289 E13.7736
G1 X290.953 Y151.266 E13.80612
G1 X290.914 Y151.795 E13.82376
G1 X290.856 Y152.371 E13.84301
G1 X290.728 Y153.318 E13.8748
G1 X290.643 Y153.81 E13.8914
G1 X290.507 Y154.457 E13.91339
G1 X290.236 Y155.576 E13.95169
G1 X289.941 Y156.652 E13.9888
G1 X289.313 Y159.103 E14.07295
G1 X288.75 Y161.588 E14.1577
G1 X288.262 Y164.064 E14.24163
G1 X287.845 Y166.544 E14.32527
G1 X287.507 Y168.99 E14.4074
G1 X287.225 Y171.548 E14.493
G1 X287.02 Y174.032 E14.5759
G1 X286.888 Y176.538 E14.65936
G1 X286.824 Y179.079 E14.7439
G1 X286.833 Y181.567 E14.82665
G1 X286.912 Y184.089 E14.91058
G1 X287.063 Y186.625 E14.99507
G1 X287.281 Y189.092 E15.07745
G1 X287.576 Y191.609 E15.16174
G1 X287.933 Y194.064 E15.24425
G1 X288.371 Y196.572 E15.32893
G1 X288.879 Y199.062 E15.41345
G1 X289.44 Y201.467 E15.49559
G1 X290.086 Y203.928 E15.58022
G1 X290.317 Y204.758 E15.60887
G1 X290.492 Y205.492 E15.63397
G1 X290.682 Y206.443 E15.66622
G1 X290.818 Y207.315 E15.69558
G1 X290.881 Y207.858 E15.71376
G1 X290.941 Y208.633 E15.73961
G1 X290.98 Y209.6 E15.7718
G1 X290.989 Y210.289 E15.79472
G1 X290.953 Y211.266 E15.82724
G1 X290.915 Y211.784 E15.84451
G1 X290.858 Y212.356 E15.86363
G1 X290.727 Y213.32 E15.89599
G1 X290.639 Y213.825 E15.91304
G1 X290.506 Y214.458 E15.93455
G1 X290.242 Y215.547 E15.97182
G1 X289.959 Y216.58 E16.00744
G1 X289.316 Y219.094 E16.09375
G1 X288.758 Y221.553 E16.17762
G1 X288.267 Y224.045 E16.26209
G1 X287.86 Y226.472 E16.34394
G1 X287.512 Y228.982 E16.42823
G1 X287.232 Y231.519 E16.51312
G1 X287.027 Y234.003 E16.59602
G1 X286.895 Y236.509 E16.67948
G1 X286.831 Y239.05 E16.76402
G1 X286.84 Y241.54 E16.84684
G1 X286.919 Y244.07 E16.93103
G1 X287.069 Y246.591 E17.01503
G1 X287.286 Y249.045 E17.09697
G1 X287.585 Y251.595 E17.18236
G1 X287.944 Y254.061 E17.26525
G1 X288.374 Y256.526 E17.34847
G1 X288.884 Y259.025 E17.4333
G1 X289.439 Y261.408 E17.51468
G1 X289.975 Y263.424 E17.58406
G1 X290.021 Y263.633 E17.59118
G1 X290.254 Y264.5 E17.62104
G1 X290.505 Y265.551 E17.65698
G1 X290.646 Y266.255 E17.68086
G1 X290.768 Y267.006 E17.70617
G1 X290.869 Y267.819 E17.73341
G1 X290.95 Y268.775 E17.76532
G1 X290.986 Y269.56 E17.79146
G1 X290.987 Y270.328 E17.817
G1 X290.954 Y271.134 E17.84384
G1 X290.899 Y271.885 E17.86888
G1 X290.821 Y272.595 E17.89264
G1 X290.72 Y273.306 E17.91652
G1 X290.601 Y273.991 E17.93965
G1 X290.47 Y274.617 E17.96092
G1 X290.287 Y275.359 E17.98634
G1 X290.086 Y276.067 E18.01082
G1 X289.878 Y276.717 E18.03352
G1 X289.657 Y277.338 E18.05544
G1 X289.393 Y278.01 E18.07945
G1 X289.109 Y278.665 E18.1032
G1 X288.796 Y279.325 E18.12749
G1 X288.464 Y279.966 E18.1515
G1 X288.128 Y280.567 E18.1744
G1 X287.789 Y281.128 E18.1962
G1 X287.383 Y281.751 E18.22094
G1 X286.98 Y282.325 E18.24426
G1 X286.562 Y282.88 E18.26737
G1 X286.096 Y283.458 E18.29207
G1 X285.622 Y284.007 E18.31619
G1 X285.176 Y284.489 E18.33803
G1 X284.69 Y284.981 E18.36103
G1 X284.196 Y285.45 E18.38369
G1 X283.668 Y285.918 E18.40716
G1 X283.091 Y286.396 E18.43208
G1 X282.439 Y286.897 E18.45943
G1 X281.642 Y287.459 E18.49186
G1 X280.977 Y287.892 E18.51826
G1 X280.322 Y288.274 E18.54348
G1 X279.557 Y288.68 E18.57228
G1 X278.924 Y288.989 E18.59571
G1 X278.223 Y289.301 E18.62123
G1 X277.277 Y289.681 E18.65514
G1 X276.408 Y289.988 E18.68579
G1 X275.919 Y290.137 E18.70279
G1 X275.205 Y290.328 E18.72738
G1 X274.364 Y290.523 E18.75609
G1 X273.588 Y290.672 E18.78237
G1 X272.854 Y290.786 E18.80708
G1 X272.138 Y290.873 E18.83107
G1 X271.455 Y290.932 E18.85387
G1 X270.731 Y290.97 E18.87798
G1 X270.059 Y290.983 E18.90034
G1 X269.33 Y290.973 E18.92458
G1 X268.624 Y290.938 E18.9481
G1 X267.923 Y290.878 E18.9715
G1 X267.24 Y290.8 E18.99436
G1 X266.574 Y290.701 E19.01675
G1 X265.841 Y290.567 E19.04154
G1 X265.116 Y290.408 E19.06623
G1 X263.745 Y290.057 E19.1133
G1 X262.387 Y289.684 E19.16014
G1 X259.923 Y289.081 E19.24451
G1 X257.423 Y288.543 E19.32956
G1 X255.029 Y288.099 E19.41054
G1 X252.49 Y287.703 E19.49601
G1 X250.002 Y287.386 E19.57943
G1 X247.521 Y287.14 E19.66236
G1 X245.004 Y286.964 E19.74628
G1 X242.472 Y286.858 E19.83056
G1 X239.965 Y286.823 E19.91396
G1 X237.474 Y286.86 E19.99682
G1 X234.896 Y286.971 E20.08264
G1 X232.445 Y287.146 E20.16437
G1 X229.929 Y287.397 E20.24847
G1 X227.379 Y287.725 E20.33398
G1 X224.938 Y288.108 E20.41616
G1 X222.463 Y288.57 E20.4999
G1 X220.003 Y289.102 E20.58361
G1 X217.526 Y289.707 E20.66842
G1 X215.499 Y290.254 E20.73825
G1 X214.448 Y290.505 E20.77419
G1 X213.742 Y290.646 E20.79813
G1 X212.994 Y290.768 E20.82334
G1 X212.281 Y290.859 E20.84725
G1 X211.605 Y290.923 E20.86983
G1 X210.986 Y290.967 E20.89047
G1 X210.437 Y290.986 E20.90874
G1 X209.664 Y290.987 E20.93445
G1 X208.866 Y290.954 E20.96102
G1 X208.115 Y290.899 E20.98606
G1 X207.405 Y290.821 E21.00982
G1 X206.694 Y290.72 E21.0337
G1 X206.004 Y290.598 E21.05701
G1 X205.342 Y290.459 E21.07951
G1 X204.656 Y290.29 E21.10301
G1 X201.718 Y289.5 E21.2042
G1 X199.222 Y288.912 E21.28949
G1 X196.77 Y288.405 E21.37276
G1 X194.341 Y287.975 E21.45481
G1 X191.792 Y287.597 E21.54052
G1 X189.292 Y287.297 E21.62426
G1 X186.824 Y287.072 E21.70669
G1 X184.302 Y286.915 E21.79073
G1 X181.779 Y286.829 E21.8747
G1 X179.251 Y286.814 E21.95878
G1 X176.751 Y286.87 E22.04195
G1 X174.243 Y286.998 E22.12548
G1 X171.721 Y287.197 E22.20962
G1 X169.233 Y287.466 E22.29285
G1 X166.74 Y287.806 E22.37654
G1 X164.238 Y288.219 E22.46088
G1 X161.761 Y288.7 E22.54481
G1 X159.357 Y289.237 E22.62673
G1 X156.063 Y290.089 E22.7399
G1 X155.243 Y290.317 E22.76821
G1 X154.475 Y290.499 E22.79446
G1 X153.545 Y290.684 E22.826
G1 X152.684 Y290.818 E22.85498
G1 X152.141 Y290.881 E22.87316
G1 X151.366 Y290.941 E22.89901
G1 X150.399 Y290.98 E22.9312
G1 X149.712 Y290.989 E22.95405
G1 X148.735 Y290.953 E22.98657
G1 X148.21 Y290.914 E23.00408
G1 X147.632 Y290.856 E23.0234
G1 X146.675 Y290.727 E23.05552
G1 X145.988 Y290.603 E23.07874
G1 X145.512 Y290.501 E23.09493
G1 X144.456 Y290.243 E23.13108
G1 X143.38 Y289.949 E23.16818
G1 X140.909 Y289.316 E23.25302
G1 X138.414 Y288.751 E23.33811
G1 X135.956 Y288.266 E23.42144
G1 X133.504 Y287.855 E23.50413
G1 X131.038 Y287.512 E23.58694
G1 X128.48 Y287.23 E23.67253
G1 X125.986 Y287.024 E23.75577
G1 X123.48 Y286.892 E23.83923
G1 X120.942 Y286.828 E23.92367
G1 X118.451 Y286.837 E24.00653
G1 X115.919 Y286.916 E24.09078
G1 X113.379 Y287.068 E24.17541
G1 X110.943 Y287.283 E24.25675
G1 X108.395 Y287.582 E24.34208
G1 X105.907 Y287.945 E24.42571
G1 X103.463 Y288.371 E24.50822
G1 X100.964 Y288.881 E24.59305
G1 X98.547 Y289.444 E24.67559
G1 X96.295 Y290.049 E24.75315
G1 X94.747 Y290.438 E24.80624
G1 X94.067 Y290.586 E24.82938
G1 X93.398 Y290.707 E24.85199
G1 X92.669 Y290.813 E24.8765
G1 X91.978 Y290.889 E24.89962
G1 X91.289 Y290.943 E24.9226
G1 X90.582 Y290.974 E24.94614
G1 X89.856 Y290.982 E24.97029
G1 X89.128 Y290.964 E24.99451
G1 X88.393 Y290.922 E25.019
G1 X87.149 Y290.795 E25.06059
G1 X86.485 Y290.694 E25.08293
G1 X85.968 Y290.6 E25.1004
G1 X85.177 Y290.424 E25.12736
