;FLAVOR:Marlin
;TIME:820
;Filament used: 0.477649m
;Layer height: 0.2
;MINX:0
;MINY:0
;MINZ:0.2
;MAXX:300
;MAXY:300
;MAXZ:0.2
;Generated with Cura_SteamEngine 5.4.0
M82 ;absolute extrusion mode
M104 S160  ; Start warming extruder to 160
M190 S50 ; Wait for Heat Bed temperature
G28        ; Home all axes
G29 A      ; Activate the UBL System.
G29 L1     ; Load UBL
G29 J2     ; 4-point level
G29 F10.0  ; Fade to 10mm
G92 E0     ; Reset Extruder

G1 Z2.0 F3000                   ; Move Z Axis up little to prevent scratching of Heat Bed
G1 X0.1 Y20 Z0.3 F5000.0        ; Move to start position
M109 S200 ; Wait for extruder temperature
G1 X0.1 Y200.0 Z0.3 F1500.0 E15 ; Draw the first line
G1 X0.4 Y200.0 Z0.3 F5000.0     ; Move to side a little
G1 X0.4 Y20 Z0.3 F1500.0 E30    ; Draw the second line
G92 E0                          ; Reset Extruder
G1 Z2.0 F3000                   ; Move Z Axis up little to prevent scratching of Heat Bed
G1 X5 Y20 Z0.3 F5000.0          ; Move over to prevent blob squish
G92 E0
G92 E0
G1 F2700 E-5
;LAYER_COUNT:1
;LAYER:0
M107
G0 F6000 X0.00 Y1.106 Z0.2
;TYPE:SKIRT
G1 F2700 E0
G1 F1200 X0.89 Y0.195 E0.04236
G1 X1.117 Y0.00 E0.05231
G0 F6000 X1.731 Y0.00
G1 F1200 X1.151 Y0.498 E0.07774
G1 X0.272 Y1.398 E0.11958
G1 X0.00 Y1.731 E0.13388
G1 F2700 E-4.86612
G0 F6000 X2.363 Y0.00
G1 F2700 E0.13388
G1 F1200 X2.255 Y0.078 E0.13831
G1 X1.411 Y0.802 E0.1753
G1 X0.582 Y1.651 E0.21476
G1 X0.00 Y2.364 E0.24538
G1 F2700 E-4.75462
G0 F6000 X3.049 Y0.00
G1 F2700 E0.24538
G1 F1200 X2.489 Y0.403 E0.26832
G1 X1.672 Y1.105 E0.30415
G1 X0.869 Y1.93 E0.34244
G1 X0.23 Y2.715 E0.37611
G1 X0.00 Y3.054 E0.38973
G0 F6000 X0.00 Y3.767
G1 F1200 X0.541 Y2.967 E0.42185
G1 X1.156 Y2.209 E0.45432
G1 X1.933 Y1.408 E0.49144
G1 X2.723 Y0.728 E0.52611
G1 X3.515 Y0.158 E0.55856
G1 X3.781 Y0.00 E0.56885
G0 F6000 X4.564 Y0.00
G1 F1200 X3.719 Y0.502 E0.60154
G1 X2.957 Y1.052 E0.6328
G1 X2.194 Y1.711 E0.66633
G1 X1.443 Y2.487 E0.70225
G1 X0.852 Y3.218 E0.73351
G1 X0.289 Y4.054 E0.76704
G1 X0.00 Y4.577 E0.78691
G1 F2700 E-4.21309
G0 F6000 X5.47 Y0.00
G1 F2700 E0.78691
G1 F1200 X4.821 Y0.311 E0.81085
G1 X3.924 Y0.846 E0.84558
G1 X3.192 Y1.376 E0.87564
G1 X2.456 Y2.013 E0.90802
G1 X1.731 Y2.765 E0.94276
G1 X1.164 Y3.469 E0.97282
G1 X0.621 Y4.277 E1.0052
G1 X0.151 Y5.13 E1.0376
G1 X0.00 Y5.473 E1.05006
G1 F2700 E-3.94994
G0 F6000 X6.541 Y0.00
G1 F2700 E1.05006
G1 F1200 X5.84 Y0.264 E1.07497
G1 X4.995 Y0.671 E1.10617
G1 X4.159 Y1.17 E1.13855
G1 X3.427 Y1.7 E1.16861
G1 X2.718 Y2.315 E1.19983
G1 X2.043 Y3.016 E1.23219
G1 X1.476 Y3.72 E1.26226
G1 X0.953 Y4.5 E1.29349
G1 X0.502 Y5.322 E1.32468
G1 X0.125 Y6.181 E1.35588
G1 X0.00 Y6.552 E1.3689
G0 F6000 X0.00 Y8.051
G1 F1200 X0.204 Y7.198 E1.39807
G1 X0.491 Y6.341 E1.42813
G1 X0.853 Y5.514 E1.45816
G1 X1.286 Y4.722 E1.48818
G1 X1.788 Y3.971 E1.51822
G1 X2.355 Y3.267 E1.54829
G1 X2.981 Y2.617 E1.5783
G1 X3.662 Y2.024 E1.60834
G1 X4.394 Y1.494 E1.6384
G1 X5.169 Y1.031 E1.66842
G1 X5.982 Y0.638 E1.69846
G1 X6.827 Y0.318 E1.72851
G1 X7.696 Y0.075 E1.75852
G1 X8.097 Y0.00 E1.77209
G1 F2700 E-3.22791
G0 F6000 X298.887 Y0.00
G1 F2700 E1.77209
G1 F1200 X298.973 Y0.07 E1.77578
G1 X299.815 Y0.899 E1.81508
G1 X300 Y1.115 E1.82454
G1 F2700 E-3.17546
G0 F6000 X298.256 Y0.00
G1 F2700 E1.82454
G1 F1200 X298.693 Y0.355 E1.84326
G1 X299.511 Y1.159 E1.88141
G1 X300 Y1.729 E1.90639
G1 F2700 E-3.09361
G0 F6000 X297.622 Y0.00
G1 F2700 E1.90639
G1 F1200 X298.413 Y0.641 E1.94025
G1 X299.207 Y1.42 E1.97725
G1 X299.886 Y2.211 E2.01192
G1 X300 Y2.37 E2.01843
G1 F2700 E-2.98157
G0 F6000 X296.953 Y0.00
G1 F2700 E2.01843
G1 F1200 X297.146 Y0.129 E2.02615
G1 X298.133 Y0.927 E2.06836
G1 X298.903 Y1.681 E2.10421
G1 X299.582 Y2.472 E2.13888
G1 X300 Y3.055 E2.16274
G1 F2700 E-2.83726
G0 F6000 X296.233 Y0.00
G1 F2700 E2.16274
G1 F1200 X296.924 Y0.462 E2.19039
G1 X297.853 Y1.213 E2.23012
G1 X298.599 Y1.942 E2.26481
G1 X299.278 Y2.733 E2.29948
G1 X299.887 Y3.581 E2.33421
G1 X300 Y3.771 E2.34156
G1 F2700 E-2.65844
G0 F6000 X295.42 Y0.00
G1 F2700 E2.34156
G1 F1200 X295.951 Y0.293 E2.36173
G1 X296.702 Y0.795 E2.39178
G1 X297.574 Y1.499 E2.42905
G1 X298.296 Y2.203 E2.46259
G1 X298.953 Y2.967 E2.49611
G1 X299.543 Y3.786 E2.52968
G1 X300 Y4.554 E2.5594
G1 F2700 E-2.4406
G0 F6000 X294.528 Y0.00
G1 F2700 E2.5594
G1 F1200 X294.846 Y0.139 E2.57095
G1 X295.729 Y0.626 E2.60449
G1 X296.48 Y1.128 E2.63453
G1 X297.295 Y1.786 E2.66937
G1 X297.993 Y2.464 E2.70173
G1 X298.629 Y3.201 E2.73411
G1 X299.199 Y3.991 E2.76651
G1 X299.661 Y4.767 E2.79655
G1 X300 Y5.47 E2.82251
G1 F2700 E-2.17749
G0 F6000 X293.449 Y0.00
G1 F2700 E2.82251
G1 F1200 X293.794 Y0.116 E2.83462
G1 X294.686 Y0.506 E2.867
G1 X295.507 Y0.959 E2.89818
G1 X296.258 Y1.461 E2.92823
G1 X297.017 Y2.073 E2.96066
G1 X297.691 Y2.726 E2.99187
G1 X298.305 Y3.435 E3.02306
G1 X298.855 Y4.196 E3.05429
G1 X299.317 Y4.972 E3.08433
G1 X299.74 Y5.849 E3.11672
G1 X300 Y6.543 E3.14137
G1 F2700 E-1.85863
G0 F6000 X291.949 Y0.00
G1 F2700 E3.14137
G1 F1200 X292.81 Y0.207 E3.17082
G1 X293.666 Y0.495 E3.20086
G1 X294.493 Y0.857 E3.23088
G1 X295.285 Y1.292 E3.26094
G1 X296.036 Y1.794 E3.29098
G1 X296.739 Y2.361 E3.32102
G1 X297.389 Y2.988 E3.35106
G1 X297.981 Y3.67 E3.3811
G1 X298.511 Y4.401 E3.41113
G1 X298.973 Y5.177 E3.44117
G1 X299.366 Y5.99 E3.4712
G1 X299.684 Y6.835 E3.50123
G1 X299.927 Y7.705 E3.53127
G1 X300 Y8.098 E3.54457
G1 F2700 E-1.45543
G0 F6000 X300 Y298.898
G1 F2700 E3.54457
G1 F1200 X299.233 Y299.691 E3.58126
G1 X298.876 Y300 E3.59696
G1 F2700 E-1.40304
G0 F6000 X300 Y298.264
G1 F2700 E3.59696
G1 F1200 X299.698 Y298.638 E3.61295
G1 X298.971 Y299.389 E3.64772
G1 X298.266 Y300 E3.67875
G1 F2700 E-1.32125
G0 F6000 X300 Y297.627
G1 F2700 E3.67875
G1 F1200 X299.41 Y298.36 E3.71004
G1 X298.709 Y299.087 E3.74363
G1 X297.754 Y299.915 E3.78567
G1 X297.636 Y300 E3.79051
G0 F6000 X296.951 Y300
G1 F1200 X297.52 Y299.59 E3.81384
G1 X298.447 Y298.785 E3.85467
G1 X299.098 Y298.109 E3.88589
G1 X299.863 Y297.159 E3.92645
G1 X300 Y296.954 E3.93465
G0 F6000 X300 Y296.234
G1 F1200 X299.53 Y296.937 E3.96278
G1 X298.809 Y297.832 E4.00101
G1 X298.184 Y298.483 E4.03102
G1 X297.286 Y299.265 E4.07063
G1 X296.467 Y299.855 E4.1042
G1 X296.224 Y300 E4.11361
G1 F2700 E-0.88639
G0 F6000 X300 Y295.425
G1 F2700 E4.11361
G1 F1200 X299.719 Y295.934 E4.13295
G1 X299.197 Y296.715 E4.16419
G1 X298.52 Y297.555 E4.20008
G1 X297.895 Y298.206 E4.23009
G1 X297.052 Y298.941 E4.26729
G1 X296.262 Y299.511 E4.29969
G1 X295.442 Y300 E4.33145
G1 F2700 E-0.66855
G0 F6000 X300 Y294.528
G1 F2700 E4.33145
G1 F1200 X299.854 Y294.86 E4.34351
G1 X299.386 Y295.712 E4.37584
G1 X298.864 Y296.493 E4.40708
G1 X298.231 Y297.278 E4.44062
G1 X297.606 Y297.929 E4.47064
G1 X296.817 Y298.617 E4.50546
G1 X296.057 Y299.167 E4.53666
G1 X295.19 Y299.684 E4.57024
G1 X294.533 Y300 E4.59448
G1 F2700 E-0.40552
G0 F6000 X300 Y293.45
G1 F2700 E4.59448
G1 F1200 X299.88 Y293.808 E4.60704
G1 X299.503 Y294.668 E4.63827
G1 X299.053 Y295.49 E4.66944
G1 X298.531 Y296.271 E4.70069
G1 X297.942 Y297.001 E4.73188
G1 X297.317 Y297.652 E4.7619
G1 X296.582 Y298.293 E4.79434
G1 X295.822 Y298.843 E4.82554
G1 X295.016 Y299.324 E4.85676
G1 X294.171 Y299.732 E4.88797
G1 X293.46 Y300 E4.91324
G1 F2700 E-0.08676
G0 F6000 X291.904 Y300
G1 F2700 E4.91324
G1 F1200 X292.315 Y299.923 E4.92715
G1 X293.185 Y299.678 E4.95721
G1 X294.029 Y299.358 E4.98723
G1 X294.842 Y298.964 E5.01728
G1 X295.616 Y298.5 E5.04729
G1 X296.347 Y297.969 E5.07734
G1 X297.028 Y297.375 E5.1074
G1 X297.653 Y296.724 E5.13742
G1 X298.219 Y296.02 E5.16746
G1 X298.72 Y295.268 E5.19751
G1 X299.152 Y294.476 E5.22752
G1 X299.513 Y293.648 E5.25756
G1 X299.799 Y292.791 E5.28761
G1 X300 Y291.947 E5.31647
G1 F2700 E0.31647
G0 F6000 X1.107 Y300
G1 F2700 E5.31647
G1 F1200 X0.225 Y299.146 E5.3573
G1 X0.00 Y298.885 E5.36876
G0 F6000 X0.00 Y298.272
G1 F1200 X0.528 Y298.885 E5.39567
G1 X1.433 Y299.761 E5.43756
G1 X1.728 Y300 E5.45019
G1 F2700 E0.45019
G0 F6000 X0.00 Y297.633
G1 F2700 E5.45019
G1 F1200 X0.126 Y297.807 E5.45734
G1 X0.831 Y298.623 E5.4932
G1 X1.685 Y299.45 E5.53274
G1 X2.363 Y300 E5.56178
G1 F2700 E0.56178
G0 F6000 X0.00 Y296.95
G1 F2700 E5.56178
G1 F1200 X0.429 Y297.545 E5.58618
G1 X1.134 Y298.361 E5.62204
G1 X1.963 Y299.162 E5.66039
G1 X2.721 Y299.775 E5.69281
G1 X3.055 Y300 E5.7062
G1 F2700 E0.7062
G0 F6000 X0.00 Y296.217
G1 F2700 E5.7062
G1 F1200 X0.182 Y296.522 E5.71802
G1 X0.732 Y297.283 E5.74925
G1 X1.437 Y298.099 E5.78511
G1 X2.241 Y298.874 E5.82225
G1 X2.972 Y299.464 E5.8535
G1 X3.771 Y300 E5.8855
G1 F2700 E0.8855
G0 F6000 X0.00 Y295.435
G1 F2700 E5.8855
G1 F1200 X0.526 Y296.317 E5.91966
G1 X1.056 Y297.048 E5.94969
G1 X1.715 Y297.811 E5.98322
G1 X2.519 Y298.586 E6.02036
G1 X3.223 Y299.152 E6.05041
G1 X4.091 Y299.734 E6.08516
G1 X4.575 Y300 E6.10353
G1 F2700 E1.10353
G0 F6000 X0.00 Y294.532
G1 F2700 E6.10353
G1 F1200 X0.314 Y295.185 E6.12763
G1 X0.85 Y296.082 E6.16239
G1 X1.38 Y296.813 E6.19242
G1 X2.017 Y297.549 E6.22479
G1 X2.77 Y298.274 E6.25956
G1 X3.474 Y298.84 E6.2896
G1 X4.313 Y299.401 E6.32317
G1 X5.136 Y299.852 E6.35439
G1 X5.472 Y300 E6.3666
G1 F2700 E1.3666
G0 F6000 X0.00 Y293.46
G1 F2700 E6.3666
G1 F1200 X0.266 Y294.166 E6.39169
G1 X0.674 Y295.011 E6.4229
G1 X1.174 Y295.847 E6.4553
G1 X1.704 Y296.578 E6.48533
G1 X2.319 Y297.287 E6.51655
G1 X3.021 Y297.962 E6.54894
G1 X3.725 Y298.528 E6.57898
G1 X4.505 Y299.05 E6.6102
G1 X5.328 Y299.501 E6.64141
G1 X6.187 Y299.878 E6.67261
G1 X6.55 Y300 E6.68535
G1 F2700 E1.68535
G0 F6000 X0.00 Y291.903
G1 F2700 E6.68535
G1 F1200 X0.076 Y292.31 E6.69912
G1 X0.32 Y293.18 E6.72918
G1 X0.64 Y294.024 E6.7592
G1 X1.034 Y294.837 E6.78925
G1 X1.498 Y295.612 E6.81929
G1 X2.028 Y296.343 E6.84932
G1 X2.621 Y297.024 E6.87935
G1 X3.272 Y297.65 E6.90939
G1 X3.976 Y298.216 E6.93944
G1 X4.727 Y298.717 E6.96946
G1 X5.52 Y299.15 E6.99951
G1 X6.347 Y299.511 E7.02953
G1 X7.204 Y299.798 E7.05959
G1 X8.053 Y300 E7.08861
G1 F2700 E2.08861
;MESH:5-Point Calibration.stl
G0 F6000 X10.414 Y290.665
G0 X39.6 Y289.4
;TYPE:WALL-INNER
G1 F2700 E7.08861
G1 F1200 X39.4 Y289.2 E7.09802
G1 X39.4 Y260.6 E8.04926
G1 X10.8 Y260.6 E9.0005
G1 X10.6 Y260.432 E9.00919
G1 X10.6 Y289.4 E9.97267
G1 X39.6 Y289.4 E10.93721
G1 F2700 E5.93721
G0 F6000 X39.5 Y289.4
G0 X39.586 Y260.414
G0 X39.16 Y259.339
G0 X134.339 Y164.16
G0 X164.4 Y164.4
G1 F2700 E10.93721
G1 F1200 X164.4 Y135.6 E11.8951
G1 X135.6 Y135.6 E12.85299
G1 X135.6 Y164.4 E13.81089
G1 X164.4 Y164.4 E14.76878
G1 F2700 E9.76878
G0 F6000 X164.586 Y164.586
G0 X165.661 Y164.16
G0 X260.84 Y259.339
G0 X260.432 Y289.4
G1 F2700 E14.76878
G1 F1200 X289.4 Y289.4 E15.73226
G1 X289.4 Y260.433 E16.6957
G1 X289.2 Y260.6 E16.70437
G1 X260.6 Y260.6 E17.65561
G1 X260.6 Y289.2 E18.60685
G1 X260.432 Y289.4 E18.61554
G1 F2700 E13.61554
G0 F6000 X260.5 Y289.4
G0 X260.6 Y260.42
G0 X260.84 Y259.339
G0 X260.84 Y40.661
G0 X260.6 Y39.4
G1 F2700 E18.61554
G1 F1200 X289.2 Y39.4 E19.56678
G1 X289.4 Y39.6 E19.57618
G1 X289.4 Y10.6 E20.54073
G1 X260.4 Y10.6 E21.50527
G1 X260.6 Y10.8 E21.51468
G1 X260.6 Y39.4 E22.46592
G1 F2700 E17.46592
G0 F6000 X259.339 Y39.16
G0 X40.661 Y39.16
G0 X39.4 Y39.4
G1 F2700 E22.46592
G1 F1200 X39.4 Y10.8 E23.41716
G1 X39.568 Y10.6 E23.42585
G1 X10.6 Y10.6 E24.38933
G1 X10.6 Y39.6 E25.35387
G1 X10.8 Y39.4 E25.36328
G1 X39.4 Y39.4 E26.31452
G1 F2700 E21.31452
G0 F6000 X39.586 Y39.586
G0 X40.661 Y39.16
G0 X135.84 Y134.339
G0 X164.564 Y135.154
;TYPE:WALL-OUTER
G1 F2700 E26.31452
G1 F1200 X164.48 Y135.2 E26.3177
G1 X135.52 Y135.2 E27.28092
G1 X135.436 Y135.154 E27.2841
G1 X39.8 Y39.518 E31.78253
G1 X39.8 Y10.8 E32.73769
G1 F1197 X39.965 Y10.601 E32.74631
G1 F1194 X94.974 Y10.601 E34.58507
G1 F1197 X149.983 Y10.601 E36.41925
G1 X204.992 Y10.601 E38.25343
G1 F1200 X260.001 Y10.6 E40.08303
G1 X260.2 Y10.8 E40.09242
G1 X260.2 Y39.518 E41.04758
G1 X164.564 Y135.154 E45.54601
G1 F2700 E40.54601
G0 F6000 X164.564 Y135.5
G0 X164.586 Y164.586
G0 X165.661 Y164.16
G0 X260.84 Y259.339
G0 X260.52 Y260.2
G1 F2700 E45.54601
G1 F1200 X260.436 Y260.154 E45.54919
G1 X164.8 Y164.518 E50.04762
G1 X164.8 Y135.52 E51.01209
G1 X164.846 Y135.436 E51.01528
G1 X260.482 Y39.8 E55.5137
G1 X289.2 Y39.8 E56.46887
G1 X289.4 Y40 E56.47827
G1 X289.4 Y113.345 E58.91774
G1 F1197 X289.4 Y186.69 E61.3633
G1 X289.399 Y260.035 E63.80887
G1 X289.2 Y260.2 E63.81749
G1 F1200 X260.52 Y260.2 E64.77139
G1 F2700 E59.77139
G0 F6000 X260.52 Y260.5
G0 X289.228 Y260.772
G0 X289.53 Y289.53
G1 F2700 E64.77139
G0 F6000 X289.8 Y289.8
G1 F1200 X289.8 Y10.2 E74.07092
G1 X10.2 Y10.2 E83.37045
G1 X10.2 Y289.8 E92.66999
G1 X289.8 Y289.8 E101.96952
G1 F2700 E96.96952
G0 F6000 X289.53 Y289.53
G0 X260.772 Y289.228
G0 X260.42 Y260.52
G0 X259.339 Y260.84
G0 X40.661 Y260.84
G0 X39.8 Y260.52
G1 F2700 E101.96952
G1 F1200 X39.846 Y260.436 E101.97271
G1 X135.482 Y164.8 E106.47113
G1 X164.518 Y164.8 E107.43687
G1 X260.154 Y260.436 E111.9353
G1 X260.2 Y260.52 E111.93848
G1 X260.2 Y289.2 E112.89238
G1 F1197 X260.035 Y289.399 E112.901
G1 F1194 X205.026 Y289.399 E114.73976
G1 F1197 X150.017 Y289.399 E116.57394
G1 X95.008 Y289.399 E118.40812
G1 F1200 X39.999 Y289.4 E120.23772
G1 X39.8 Y289.2 E120.24711
G1 X39.8 Y260.52 E121.20101
G0 F6000 X39.48 Y260.2
G1 F1200 X10.8 Y260.2 E122.15491
G1 F1197 X10.601 Y260.035 E122.16353
G1 F1194 X10.601 Y205.026 E124.00228
G1 F1197 X10.601 Y150.017 E125.83646
G1 X10.601 Y95.008 E127.67065
G1 F1200 X10.6 Y39.999 E129.50025
G1 X10.8 Y39.8 E129.50964
G1 X39.518 Y39.8 E130.4648
G1 X135.154 Y135.436 E134.96323
G1 X135.2 Y135.52 E134.96641
G1 X135.2 Y164.518 E135.93089
G1 X39.564 Y260.154 E140.42931
G1 X39.48 Y260.2 E140.4325
G0 F6000 X39.48 Y260.5
G0 X39.3 Y289.04
G0 X39.04 Y289.04
;TYPE:SKIN
G1 F1200 X10.96 Y289.04 E141.36644
G1 X10.96 Y260.96 E142.30039
G1 X39.04 Y260.96 E143.23433
G1 X39.04 Y289.04 E144.16828
G0 F6000 X39.3 Y289.04
G0 X39.3 Y261.72
G0 X38.84 Y261.72
G1 F1200 X38.279 Y261.159 E144.19466
G0 F6000 X37.713 Y261.159
G1 F1200 X38.84 Y262.286 E144.24767
G0 F6000 X38.84 Y262.852
G1 F1200 X37.147 Y261.159 E144.32731
G0 F6000 X36.582 Y261.159
G1 F1200 X38.84 Y263.417 E144.43352
G0 F6000 X38.84 Y263.983
G1 F1200 X36.016 Y261.159 E144.56635
G0 F6000 X35.45 Y261.159
G1 F1200 X38.84 Y264.549 E144.7258
G0 F6000 X38.84 Y265.114
G1 F1200 X34.885 Y261.159 E144.91184
G0 F6000 X34.319 Y261.159
G1 F1200 X38.84 Y265.68 E145.12449
G0 F6000 X38.84 Y266.246
G1 F1200 X33.753 Y261.159 E145.36377
G0 F6000 X33.188 Y261.159
G1 F1200 X38.84 Y266.811 E145.62962
G0 F6000 X38.84 Y267.377
G1 F1200 X32.622 Y261.159 E145.92209
G0 F6000 X32.056 Y261.159
G1 F1200 X38.84 Y267.943 E146.24119
G0 F6000 X38.84 Y268.508
G1 F1200 X31.491 Y261.159 E146.58687
G0 F6000 X30.925 Y261.159
G1 F1200 X38.84 Y269.074 E146.95917
G0 F6000 X38.84 Y269.64
G1 F1200 X30.359 Y261.159 E147.35809
G0 F6000 X29.793 Y261.159
G1 F1200 X38.84 Y270.206 E147.78363
G0 F6000 X38.84 Y270.771
G1 F1200 X29.228 Y261.159 E148.23575
G0 F6000 X28.662 Y261.159
G1 F1200 X38.84 Y271.337 E148.71449
G0 F6000 X38.84 Y271.903
G1 F1200 X28.096 Y261.159 E149.21985
G0 F6000 X27.531 Y261.159
G1 F1200 X38.84 Y272.468 E149.7518
G0 F6000 X38.84 Y273.034
G1 F1200 X26.965 Y261.159 E150.31036
G0 F6000 X26.399 Y261.159
G1 F1200 X38.84 Y273.6 E150.89555
G0 F6000 X38.84 Y274.165
G1 F1200 X25.834 Y261.159 E151.50731
G0 F6000 X25.268 Y261.159
G1 F1200 X38.84 Y274.731 E152.14569
G0 F6000 X38.84 Y275.297
G1 F1200 X24.702 Y261.159 E152.8107
G0 F6000 X24.137 Y261.159
G1 F1200 X38.84 Y275.862 E153.50229
G0 F6000 X38.84 Y276.428
G1 F1200 X23.571 Y261.159 E154.22049
G0 F6000 X23.005 Y261.159
G1 F1200 X38.84 Y276.994 E154.96532
G0 F6000 X38.84 Y277.559
G1 F1200 X22.44 Y261.159 E155.73673
G0 F6000 X21.874 Y261.159
G1 F1200 X38.84 Y278.125 E156.53476
G0 F6000 X38.84 Y278.691
G1 F1200 X21.308 Y261.159 E157.35941
G0 F6000 X20.742 Y261.159
G1 F1200 X38.84 Y279.256 E158.21066
G0 F6000 X38.84 Y279.822
G1 F1200 X20.177 Y261.159 E159.08851
G0 F6000 X19.611 Y261.159
G1 F1200 X38.84 Y280.388 E159.99298
G0 F6000 X38.84 Y280.954
G1 F1200 X19.045 Y261.159 E160.92408
G0 F6000 X18.48 Y261.159
G1 F1200 X38.84 Y281.519 E161.88175
G0 F6000 X38.84 Y282.085
G1 F1200 X17.914 Y261.159 E162.86605
