;FLAVOR:Marlin
;TIME:669
;Filament used: 0.3855m
;Layer height: 0.2
;MINX:0
;MINY:0
;MINZ:0.2
;MAXX:300
;MAXY:300
;MAXZ:0.2
;Generated with Cura_SteamEngine 5.4.0
M82 ;absolute extrusion mode
M104 S160  ; Start warming extruder to 160
M190 S50 ; Wait for Heat Bed temperature
G28        ; Home all axes
G29 A      ; Activate the UBL System.
G29 L1     ; Load UBL
G29 J2     ; 4-point level
G29 F10.0  ; Fade to 10mm
G92 E0     ; Reset Extruder

G1 Z2.0 F3000                   ; Move Z Axis up little to prevent scratching of Heat Bed
G1 X0.1 Y20 Z0.3 F5000.0        ; Move to start position
M109 S200 ; Wait for extruder temperature
G1 X0.1 Y200.0 Z0.3 F1500.0 E15 ; Draw the first line
G1 X0.4 Y200.0 Z0.3 F5000.0     ; Move to side a little
G1 X0.4 Y20 Z0.3 F1500.0 E30    ; Draw the second line
G92 E0                          ; Reset Extruder
G1 Z2.0 F3000                   ; Move Z Axis up little to prevent scratching of Heat Bed
G1 X5 Y20 Z0.3 F5000.0          ; Move over to prevent blob squish
G92 E0
G92 E0
G1 F2700 E-5
;LAYER_COUNT:1
;LAYER:0
M107
G0 F6000 X0.00 Y1.11 Z0.2
;TYPE:SKIRT
G1 F2700 E0
G1 F1200 X0.886 Y0.196 E0.04234
G1 X1.114 Y0.00 E0.05234
G0 F6000 X1.728 Y0.00
G1 F1200 X1.147 Y0.499 E0.07781
G1 X0.224 Y1.452 E0.12194
G1 X0.00 Y1.728 E0.13376
G0 F6000 X0.00 Y2.364
G1 F1200 X0.535 Y1.704 E0.16202
G1 X1.408 Y0.802 E0.20377
G1 X2.173 Y0.143 E0.23735
G1 X2.372 Y0.00 E0.2455
G1 F2700 E-4.7545
G0 F6000 X0.00 Y3.056
G1 F2700 E0.2455
G1 F1200 X0.232 Y2.714 E0.25925
G1 X0.846 Y1.956 E0.29169
G1 X1.67 Y1.105 E0.33109
G1 X2.407 Y0.468 E0.36349
G1 X3.057 Y0.00 E0.39013
G1 F2700 E-4.60987
G0 F6000 X0.00 Y3.768
G1 F2700 E0.39013
G1 F1200 X0.543 Y2.966 E0.42234
G1 X1.157 Y2.208 E0.45479
G1 X1.932 Y1.408 E0.49183
G1 X2.669 Y0.771 E0.52423
G1 X3.573 Y0.119 E0.56131
G1 X3.772 Y0.00 E0.56902
G0 F6000 X4.554 Y0.00
G1 F1200 X3.778 Y0.463 E0.59907
G1 X2.931 Y1.074 E0.63381
G1 X2.194 Y1.711 E0.66621
G1 X1.468 Y2.46 E0.7009
G1 X0.854 Y3.218 E0.73335
G1 X0.289 Y4.055 E0.76694
G1 X0.00 Y4.579 E0.78684
G1 F2700 E-4.21316
G0 F6000 X5.473 Y0.00
G1 F2700 E0.78684
G1 F1200 X4.759 Y0.344 E0.8132
G1 X3.983 Y0.807 E0.84325
G1 X3.193 Y1.377 E0.87565
G1 X2.456 Y2.014 E0.90805
G1 X1.779 Y2.712 E0.9404
G1 X1.165 Y3.47 E0.97284
G1 X0.621 Y4.278 E1.00524
G1 X0.151 Y5.131 E1.03763
G1 X0.00 Y5.473 E1.05007
G1 F2700 E-3.94993
G0 F6000 X6.543 Y0.00
G1 F2700 E1.05007
G1 F1200 X5.84 Y0.265 E1.07505
G1 X4.964 Y0.688 E1.10741
G1 X4.188 Y1.151 E1.13746
G1 X3.427 Y1.701 E1.16869
G1 X2.718 Y2.316 E1.19991
G1 X2.066 Y2.99 E1.2311
G1 X1.476 Y3.721 E1.26234
G1 X0.953 Y4.501 E1.29358
G1 X0.502 Y5.323 E1.32476
G1 X0.124 Y6.183 E1.35601
G1 X0.00 Y6.552 E1.36895
G0 F6000 X0.00 Y8.052
G1 F1200 X0.204 Y7.199 E1.39813
G1 X0.491 Y6.343 E1.42815
G1 X0.853 Y5.515 E1.45821
G1 X1.286 Y4.723 E1.48823
G1 X1.788 Y3.972 E1.51828
G1 X2.354 Y3.268 E1.54832
G1 X2.981 Y2.618 E1.57836
G1 X3.662 Y2.025 E1.60839
G1 X4.393 Y1.495 E1.63842
G1 X5.169 Y1.032 E1.66848
G1 X5.982 Y0.639 E1.69851
G1 X6.826 Y0.319 E1.72853
G1 X7.696 Y0.076 E1.75858
G1 X8.103 Y0.00 E1.77235
G1 F2700 E-3.22765
G0 F6000 X298.886 Y0.00
G1 F2700 E1.77235
G1 F1200 X298.945 Y0.049 E1.7749
G1 X299.813 Y0.904 E1.81542
G1 X300 Y1.124 E1.82503
G1 F2700 E-3.17497
G0 F6000 X298.258 Y0.00
G1 F2700 E1.82503
G1 F1200 X298.665 Y0.334 E1.84254
G1 X299.508 Y1.163 E1.88186
G1 X300 Y1.741 E1.90711
G1 F2700 E-3.09289
G0 F6000 X297.627 Y0.00
G1 F2700 E1.90711
G1 F1200 X298.411 Y0.643 E1.94083
G1 X299.204 Y1.423 E1.97783
G1 X299.927 Y2.27 E2.01487
G1 X300 Y2.372 E2.01904
G1 F2700 E-2.98096
G0 F6000 X296.939 Y0.00
G1 F2700 E2.01904
G1 F1200 X297.265 Y0.221 E2.03214
G1 X298.131 Y0.929 E2.06934
G1 X298.9 Y1.683 E2.10516
G1 X299.602 Y2.503 E2.14107
G1 X300 Y3.06 E2.16384
G1 F2700 E-2.83616
G0 F6000 X296.225 Y0.00
G1 F2700 E2.16384
G1 F1200 X297.012 Y0.531 E2.19541
G1 X297.851 Y1.215 E2.23142
G1 X298.597 Y1.944 E2.26611
G1 X299.277 Y2.736 E2.30083
G1 X299.885 Y3.584 E2.33553
G1 X300 Y3.777 E2.343
G1 F2700 E-2.657
G0 F6000 X295.416 Y0.00
G1 F2700 E2.343
G1 F1200 X295.922 Y0.279 E2.36222
G1 X296.788 Y0.863 E2.39696
G1 X297.572 Y1.501 E2.43058
G1 X298.294 Y2.205 E2.46412
G1 X298.952 Y2.969 E2.49766
G1 X299.541 Y3.789 E2.53124
G1 X300 Y4.559 E2.56105
G1 F2700 E-2.43895
G0 F6000 X294.519 Y0.00
G1 F2700 E2.56105
G1 F1200 X294.876 Y0.158 E2.57404
G1 X295.699 Y0.611 E2.60528
G1 X296.536 Y1.174 E2.63884
G1 X297.293 Y1.788 E2.67125
G1 X297.991 Y2.466 E2.70362
G1 X298.627 Y3.203 E2.736
G1 X299.197 Y3.994 E2.76842
G1 X299.659 Y4.769 E2.79843
G1 X300 Y5.477 E2.82457
G1 F2700 E-2.17543
G0 F6000 X293.439 Y0.00
G1 F2700 E2.82457
G1 F1200 X293.826 Y0.131 E2.83816
G1 X294.684 Y0.509 E2.86934
G1 X295.476 Y0.943 E2.89938
G1 X296.285 Y1.485 E2.93177
G1 X297.015 Y2.075 E2.96299
G1 X297.689 Y2.728 E2.9942
G1 X298.303 Y3.437 E3.0254
G1 X298.853 Y4.199 E3.05665
G1 X299.315 Y4.974 E3.08666
G1 X299.738 Y5.852 E3.11908
G1 X300 Y6.551 E3.14391
G1 F2700 E-1.85609
G0 F6000 X291.938 Y0.00
G1 F2700 E3.14391
G1 F1200 X292.809 Y0.209 E3.1737
G1 X293.665 Y0.497 E3.20374
G1 X294.492 Y0.86 E3.23378
G1 X295.284 Y1.294 E3.26381
G1 X296.034 Y1.796 E3.29383
G1 X296.737 Y2.363 E3.32387
G1 X297.387 Y2.99 E3.35391
G1 X297.979 Y3.672 E3.38394
G1 X298.509 Y4.404 E3.414
G1 X298.971 Y5.179 E3.44401
G1 X299.364 Y5.993 E3.47408
G1 X299.682 Y6.838 E3.5041
G1 X299.925 Y7.708 E3.53415
G1 X300 Y8.111 E3.54778
G1 F2700 E-1.45222
G0 F6000 X300 Y298.897
G1 F2700 E3.54778
G1 F1200 X299.233 Y299.691 E3.5845
G1 X298.876 Y300 E3.6002
G0 F6000 X298.263 Y300
G1 F1200 X298.971 Y299.388 E3.63133
G1 X299.698 Y298.637 E3.6661
G1 X300 Y298.263 E3.68208
G0 F6000 X300 Y297.626
G1 F1200 X299.41 Y298.359 E3.71338
G1 X298.709 Y299.086 E3.74697
G1 X297.754 Y299.914 E3.78901
G1 X297.635 Y300 E3.79389
G0 F6000 X296.949 Y300
G1 F1200 X297.52 Y299.589 E3.81729
G1 X298.447 Y298.784 E3.85813
G1 X299.098 Y298.108 E3.88934
G1 X299.863 Y297.158 E3.92991
G1 X300 Y296.953 E3.93811
G1 F2700 E-1.06189
G0 F6000 X296.22 Y300
G1 F2700 E3.93811
G1 F1200 X296.466 Y299.854 E3.94763
G1 X297.286 Y299.264 E3.98123
G1 X298.184 Y298.482 E4.02083
G1 X298.809 Y297.831 E4.05085
G1 X299.53 Y296.936 E4.08907
G1 X300 Y296.233 E4.1172
G0 F6000 X300 Y295.424
G1 F1200 X299.719 Y295.933 E4.13654
G1 X299.197 Y296.714 E4.16778
G1 X298.52 Y297.554 E4.20366
G1 X297.895 Y298.205 E4.23368
G1 X297.052 Y298.94 E4.27088
G1 X296.262 Y299.51 E4.30328
G1 X295.437 Y300 E4.33519
G1 F2700 E-0.66481
G0 F6000 X300 Y294.527
G1 F2700 E4.33519
G1 F1200 X299.854 Y294.859 E4.34726
G1 X299.386 Y295.711 E4.37959
G1 X298.864 Y296.492 E4.41083
G1 X298.231 Y297.277 E4.44437
G1 X297.606 Y297.928 E4.47439
G1 X296.817 Y298.616 E4.50921
G1 X296.057 Y299.166 E4.54041
G1 X295.19 Y299.683 E4.57398
G1 X294.53 Y300 E4.59833
G1 F2700 E-0.40167
G0 F6000 X300 Y293.449
G1 F2700 E4.59833
G1 F1200 X299.88 Y293.807 E4.61089
G1 X299.503 Y294.667 E4.64212
G1 X299.053 Y295.489 E4.67329
G1 X298.531 Y296.27 E4.70454
G1 X297.942 Y297 E4.73573
G1 X297.317 Y297.651 E4.76575
G1 X296.582 Y298.292 E4.79819
G1 X295.822 Y298.842 E4.82939
G1 X295.016 Y299.323 E4.86061
G1 X294.171 Y299.731 E4.89182
G1 X293.457 Y300 E4.91719
G1 F2700 E-0.08281
G0 F6000 X291.898 Y300
G1 F2700 E4.91719
G1 F1200 X292.315 Y299.922 E4.9313
G1 X293.185 Y299.677 E4.96137
G1 X294.029 Y299.357 E4.99139
G1 X294.842 Y298.963 E5.02144
G1 X295.616 Y298.499 E5.05145
G1 X296.347 Y297.968 E5.0815
G1 X297.028 Y297.374 E5.11156
G1 X297.653 Y296.723 E5.14157
G1 X298.219 Y296.019 E5.17162
G1 X298.72 Y295.267 E5.20167
G1 X299.152 Y294.475 E5.23168
G1 X299.513 Y293.647 E5.26172
G1 X299.799 Y292.79 E5.29177
G1 X300 Y291.946 E5.32063
G1 F2700 E0.32063
G0 F6000 X1.108 Y300
G1 F2700 E5.32063
G1 F1200 X0.225 Y299.145 E5.36151
G1 X0.00 Y298.884 E5.37297
G0 F6000 X0.00 Y298.271
G1 F1200 X0.528 Y298.884 E5.39988
G1 X1.433 Y299.76 E5.44177
G1 X1.729 Y300 E5.45444
G1 F2700 E0.45444
G0 F6000 X0.00 Y297.632
G1 F2700 E5.45444
G1 F1200 X0.126 Y297.806 E5.46159
G1 X0.831 Y298.622 E5.49746
G1 X1.685 Y299.449 E5.537
G1 X2.364 Y300 E5.56608
G1 F2700 E0.56608
G0 F6000 X0.00 Y296.949
G1 F2700 E5.56608
G1 F1200 X0.429 Y297.544 E5.59048
G1 X1.134 Y298.36 E5.62634
G1 X1.963 Y299.161 E5.66468
G1 X2.721 Y299.774 E5.69711
G1 X3.057 Y300 E5.71058
G1 F2700 E0.71058
G0 F6000 X0.00 Y296.216
G1 F2700 E5.71058
G1 F1200 X0.182 Y296.521 E5.72239
G1 X0.732 Y297.282 E5.75362
G1 X1.437 Y298.098 E5.78949
G1 X2.241 Y298.873 E5.82663
G1 X2.972 Y299.463 E5.85787
G1 X3.773 Y300 E5.88995
G1 F2700 E0.88995
G0 F6000 X0.00 Y295.434
G1 F2700 E5.88995
G1 F1200 X0.526 Y296.316 E5.9241
G1 X1.056 Y297.047 E5.95413
G1 X1.715 Y297.81 E5.98767
G1 X2.519 Y298.585 E6.02481
G1 X3.223 Y299.151 E6.05485
G1 X4.091 Y299.733 E6.08961
G1 X4.577 Y300 E6.10805
G1 F2700 E1.10805
G0 F6000 X0.00 Y294.531
G1 F2700 E6.10805
G1 F1200 X0.314 Y295.184 E6.13215
G1 X0.85 Y296.081 E6.16691
G1 X1.38 Y296.812 E6.19694
G1 X2.017 Y297.548 E6.22931
G1 X2.77 Y298.273 E6.26408
G1 X3.474 Y298.839 E6.29412
G1 X4.313 Y299.4 E6.32769
G1 X5.136 Y299.851 E6.35891
G1 X5.474 Y300 E6.37119
G1 F2700 E1.37119
G0 F6000 X0.00 Y293.459
G1 F2700 E6.37119
G1 F1200 X0.266 Y294.165 E6.39629
G1 X0.674 Y295.01 E6.4275
G1 X1.174 Y295.846 E6.45989
G1 X1.704 Y296.577 E6.48993
G1 X2.319 Y297.286 E6.52114
G1 X3.021 Y297.961 E6.55353
G1 X3.725 Y298.527 E6.58358
G1 X4.505 Y299.049 E6.61479
G1 X5.328 Y299.5 E6.64601
G1 X6.187 Y299.877 E6.67721
G1 X6.553 Y300 E6.69005
G1 F2700 E1.69005
G0 F6000 X0.00 Y291.902
G1 F2700 E6.69005
G1 F1200 X0.076 Y292.309 E6.70382
G1 X0.32 Y293.179 E6.73388
G1 X0.64 Y294.023 E6.7639
G1 X1.034 Y294.836 E6.79395
G1 X1.498 Y295.611 E6.82399
G1 X2.028 Y296.342 E6.85402
G1 X2.621 Y297.023 E6.88405
G1 X3.272 Y297.649 E6.91409
G1 X3.976 Y298.215 E6.94414
G1 X4.727 Y298.716 E6.97416
G1 X5.52 Y299.149 E7.00421
G1 X6.347 Y299.51 E7.03423
G1 X7.204 Y299.797 E7.06429
G1 X8.057 Y300 E7.09345
G1 F2700 E2.09345
;MESH:Grid Calibration.stl
G0 F6000 X184.823 Y254.125
;TYPE:WALL-OUTER
G1 F2700 E7.09345
G1 F971.7 X219.473 Y254.125 E8.51674
G1 X219.473 Y219.825 E9.92566
G1 X184.823 Y219.825 E11.34895
G1 X184.823 Y254.125 E12.75787
G1 F2700 E7.75787
G0 F6000 X183.645 Y253.297
G0 X151.352 Y253.297
G0 X150.524 Y254.125
G1 F2700 E12.75787
G1 F971.7 X184.473 Y254.125 E14.15237
G1 X184.473 Y219.825 E15.56128
G1 X150.524 Y219.825 E16.95578
G1 X150.524 Y254.125 E18.3647
G0 F6000 X150.174 Y254.125
G1 F971.7 X150.174 Y219.825 E19.77361
G1 X115.524 Y219.825 E21.1969
G1 X115.524 Y254.125 E22.60582
G1 X150.174 Y254.125 E24.02911
G1 F2700 E19.02911
G0 F6000 X149.346 Y253.297
G0 X149.346 Y220.653
G0 X150.174 Y219.475
G1 F2700 E24.02911
G1 F971.7 X150.174 Y184.825 E25.45241
G1 X115.524 Y184.825 E26.8757
G1 X115.524 Y219.475 E28.29899
G1 X150.174 Y219.475 E29.72228
G0 F6000 X150.524 Y219.475
G1 F971.7 X184.473 Y219.475 E31.11678
G1 X184.473 Y184.825 E32.54007
G1 X150.524 Y184.825 E33.93457
G1 X150.524 Y219.475 E35.35786
G1 F2700 E30.35786
G0 F6000 X151.352 Y218.647
G0 X183.645 Y218.647
G0 X184.823 Y219.475
G1 F2700 E35.35786
G1 F971.7 X219.473 Y219.475 E36.78116
G1 X219.473 Y184.825 E38.20445
G1 X184.823 Y184.825 E39.62774
G1 X184.823 Y219.475 E41.05104
G1 F2700 E36.05104
G0 F6000 X185.651 Y218.647
G0 X185.651 Y185.653
G0 X184.823 Y184.475
G1 F2700 E41.05104
G1 F971.7 X219.473 Y184.475 E42.47433
G1 X219.473 Y149.826 E43.89758
G1 X184.823 Y149.826 E45.32087
G1 X184.823 Y184.475 E46.74412
G1 F2700 E41.74412
G0 F6000 X183.645 Y183.647
G0 X151.352 Y183.647
G0 X150.524 Y184.475
G1 F2700 E46.74412
G1 F971.7 X184.473 Y184.475 E48.13862
G1 X184.473 Y149.826 E49.56187
G1 X150.524 Y149.826 E50.95637
G1 X150.524 Y184.475 E52.37962
G0 F6000 X150.174 Y184.475
G1 F971.7 X150.174 Y149.826 E53.80287
G1 X115.524 Y149.826 E55.22617
G1 X115.524 Y184.475 E56.64942
G1 X150.174 Y184.475 E58.07271
G1 F2700 E53.07271
G0 F6000 X149.346 Y183.647
G0 X149.346 Y150.654
G0 X150.174 Y149.476
G1 F2700 E58.07271
G1 F971.7 X150.174 Y115.526 E59.46725
G1 X115.524 Y115.526 E60.89054
G1 X115.524 Y149.476 E62.28508
G1 X150.174 Y149.476 E63.70838
G0 F6000 X150.524 Y149.476
G1 F971.7 X184.473 Y149.476 E65.10287
G1 X184.473 Y115.526 E66.49741
G1 X150.524 Y115.526 E67.89191
G1 X150.524 Y149.476 E69.28645
G1 F2700 E64.28645
G0 F6000 X151.352 Y148.648
G0 X183.645 Y148.648
G0 X184.823 Y149.476
G1 F2700 E69.28645
G1 F971.7 X219.473 Y149.476 E70.70974
G1 X219.473 Y115.526 E72.10428
G1 X184.823 Y115.526 E73.52757
G1 X184.823 Y149.476 E74.92211
G1 F2700 E69.92211
G0 F6000 X185.651 Y148.648
G0 X185.651 Y116.354
G0 X184.823 Y115.176
G1 F2700 E74.92211
G1 F971.7 X219.473 Y115.176 E76.34541
G1 X219.473 Y80.526 E77.7687
G1 X184.823 Y80.526 E79.19199
G1 X184.823 Y115.176 E80.61528
G1 F2700 E75.61528
G0 F6000 X183.645 Y114.348
G0 X151.352 Y114.348
G0 X150.524 Y115.176
G1 F2700 E80.61528
G1 F971.7 X184.473 Y115.176 E82.00978
G1 X184.473 Y80.526 E83.43308
G1 X150.524 Y80.526 E84.82757
G1 X150.524 Y115.176 E86.25087
G0 F6000 X150.174 Y115.176
G1 F971.7 X150.174 Y80.526 E87.67416
G1 X115.524 Y80.526 E89.09745
G1 X115.524 Y115.176 E90.52074
G1 X150.174 Y115.176 E91.94404
G1 F2700 E86.94404
G0 F6000 X149.346 Y114.348
G0 X116.352 Y114.348
G0 X115.174 Y115.176
G1 F2700 E91.94404
G1 F971.7 X115.174 Y80.526 E93.36733
G1 X80.524 Y80.526 E94.79062
G1 X80.524 Y115.176 E96.21391
G1 X115.174 Y115.176 E97.63721
G1 F2700 E92.63721
G0 F6000 X114.346 Y116.354
G0 X114.346 Y148.648
G0 X115.174 Y149.476
G1 F2700 E97.63721
G1 F971.7 X115.174 Y115.526 E99.03175
G1 X80.524 Y115.526 E100.45504
G1 X80.524 Y149.476 E101.84958
G1 X115.174 Y149.476 E103.27287
G1 F2700 E98.27287
G0 F6000 X114.346 Y150.654
G0 X114.346 Y183.647
G0 X115.174 Y184.475
G1 F2700 E103.27287
G1 F971.7 X115.174 Y149.826 E104.69612
G1 X80.524 Y149.826 E106.11942
G1 X80.524 Y184.475 E107.54267
G1 X115.174 Y184.475 E108.96596
G1 F2700 E103.96596
G0 F6000 X114.346 Y185.653
G0 X114.346 Y218.647
G0 X115.174 Y219.475
G1 F2700 E108.96596
G1 F971.7 X115.174 Y184.825 E110.38925
G1 X80.524 Y184.825 E111.81255
G1 X80.524 Y219.475 E113.23584
G1 X115.174 Y219.475 E114.65913
G1 F2700 E109.65913
G0 F6000 X114.346 Y220.653
G0 X114.346 Y253.297
G0 X115.174 Y254.125
G1 F2700 E114.65913
G1 F971.7 X115.174 Y219.825 E116.06805
G1 X80.524 Y219.825 E117.49134
G1 X80.524 Y254.125 E118.90025
G1 X115.174 Y254.125 E120.32355
G1 F2700 E115.32355
G0 F6000 X114.346 Y253.297
G0 X81.352 Y253.297
G0 X80.174 Y254.125
G1 F2700 E120.32355
G1 F971.7 X80.174 Y219.825 E121.73246
G1 X45.875 Y219.825 E123.14134
G1 X45.875 Y254.125 E124.55025
G1 X80.174 Y254.125 E125.95913
G1 F2700 E120.95913
G0 F6000 X79.346 Y253.297
G0 X46.703 Y253.297
G0 X45.525 Y254.125
G1 F2700 E125.95913
G1 F971.7 X45.525 Y219.825 E127.36805
G1 F977.6 X42.029 Y219.825 E127.51078
G1 F989.7 X38.533 Y219.825 E127.65176
G1 F1002.1 X35.037 Y219.825 E127.791
G1 F1012.7 X31.541 Y219.825 E127.92879
G1 F1025.6 X28.045 Y219.825 E128.06484
G1 F1039 X24.549 Y219.825 E128.19914
G1 F1052.6 X21.053 Y219.825 E128.33169
G1 F1064.3 X17.557 Y219.825 E128.4628
G1 F1078.7 X14.061 Y219.825 E128.59216
G1 F1093.4 X10.565 Y219.825 E128.71977
G1 F1221.4 X10.526 Y220 E128.72563
G1 F1363.6 X10.526 Y253.981 E129.72022
G1 F1215.2 X10.569 Y254.125 E129.72515
G1 F1093.4 X14.065 Y254.125 E129.85277
G1 F1078.7 X17.561 Y254.125 E129.98213
G1 F1064.3 X21.057 Y254.125 E130.11323
G1 F1052.6 X24.553 Y254.125 E130.24578
G1 F1039 X28.049 Y254.125 E130.38008
G1 F1025.6 X31.545 Y254.125 E130.51613
G1 F1012.7 X35.041 Y254.125 E130.65392
G1 F1002.1 X38.537 Y254.125 E130.79316
G1 F989.7 X42.033 Y254.125 E130.93415
G1 F977.6 X45.529 Y254.125 E131.07688
G1 F2700 E126.07688
G0 F6000 X44.697 Y253.297
G0 X44.697 Y220.653
G0 X45.525 Y219.475
G1 F2700 E131.07688
G1 F971.7 X45.525 Y184.825 E132.50017
G1 F977.6 X42.029 Y184.825 E132.6429
G1 F989.7 X38.533 Y184.825 E132.78389
G1 F1002.1 X35.037 Y184.825 E132.92313
G1 F1012.7 X31.541 Y184.825 E133.06092
G1 F1025.6 X28.045 Y184.825 E133.19696
G1 F1039 X24.549 Y184.825 E133.33126
G1 F1052.6 X21.053 Y184.825 E133.46382
G1 F1064.3 X17.557 Y184.825 E133.59492
G1 F1078.7 X14.061 Y184.825 E133.72428
G1 F1093.4 X10.565 Y184.825 E133.8519
G1 F1221.4 X10.526 Y185 E133.85775
G1 F1363.6 X10.526 Y219.331 E134.86259
