;FLAVOR:Marlin
;TIME:1262
;Filament used: 0.780832m
;Layer height: 0.2
;MINX:19
;MINY:19
;MINZ:0.2
;MAXX:281
;MAXY:281
;MAXZ:0.2
;Generated with Cura_SteamEngine 5.4.0
M82 ;absolute extrusion mode
M104 S160  ; Start warming extruder to 160
M190 S50 ; Wait for Heat Bed temperature
G28        ; Home all axes
G29 A      ; Activate the UBL System.
G29 L1     ; Load UBL
G29 J2     ; 4-point level
G29 F10.0  ; Fade to 10mm
G92 E0     ; Reset Extruder

G1 Z2.0 F3000                   ; Move Z Axis up little to prevent scratching of Heat Bed
G1 X0.1 Y20 Z0.3 F5000.0        ; Move to start position
M109 S200 ; Wait for extruder temperature
G1 X0.1 Y200.0 Z0.3 F1500.0 E15 ; Draw the first line
G1 X0.4 Y200.0 Z0.3 F5000.0     ; Move to side a little
G1 X0.4 Y20 Z0.3 F1500.0 E30    ; Draw the second line
G92 E0                          ; Reset Extruder
G1 Z2.0 F3000                   ; Move Z Axis up little to prevent scratching of Heat Bed
G1 X5 Y20 Z0.3 F5000.0          ; Move over to prevent blob squish
G92 E0
G92 E0
G1 F2700 E-5
;LAYER_COUNT:1
;LAYER:0
M107
G0 F6000 X22.456 Y22.013 Z0.2
;TYPE:SKIRT
G1 F2700 E0
G1 F1200 X23.192 Y21.376 E0.03237
G1 X23.924 Y20.846 E0.06243
G1 X24.821 Y20.311 E0.09717
G1 X25.699 Y19.89 E0.12956
G1 X26.612 Y19.548 E0.16198
G1 X27.549 Y19.289 E0.19432
G1 X28.516 Y19.111 E0.22702
G1 X29.655 Y19.015 E0.26504
G1 X30.312 Y19 E0.2869
G1 X59.304 Y19 E1.25117
G1 X60.189 Y19.013 E1.28061
G1 X61.16 Y19.072 E1.31297
G1 X62.124 Y19.218 E1.3454
G1 X63.071 Y19.449 E1.37782
G1 X63.961 Y19.75 E1.40906
G1 X66.659 Y20.794 E1.50528
G1 X69.039 Y21.632 E1.58921
G1 X71.461 Y22.411 E1.67383
G1 X73.854 Y23.107 E1.75672
G1 X76.283 Y23.739 E1.8402
G1 X78.809 Y24.319 E1.9264
G1 X81.22 Y24.803 E2.00819
G1 X83.692 Y25.226 E2.0916
G1 X86.203 Y25.584 E2.17596
G1 X88.692 Y25.866 E2.25928
G1 X91.197 Y26.081 E2.3429
G1 X93.713 Y26.222 E2.42671
G1 X96.246 Y26.294 E2.51099
G1 X98.735 Y26.294 E2.59378
G1 X101.268 Y26.222 E2.67806
G1 X103.786 Y26.081 E2.76194
G1 X106.283 Y25.868 E2.84529
G1 X108.786 Y25.583 E2.92908
G1 X111.279 Y25.228 E3.01284
G1 X113.766 Y24.802 E3.09676
G1 X116.189 Y24.316 E3.17895
G1 X118.688 Y23.743 E3.26423
G1 X121.12 Y23.109 E3.34782
G1 X123.534 Y22.407 E3.43143
G1 X125.931 Y21.637 E3.51517
G1 X128.326 Y20.79 E3.59966
G1 X131.095 Y19.73 E3.69828
G1 X132.002 Y19.429 E3.73006
G1 X132.983 Y19.198 E3.76358
G1 X133.877 Y19.068 E3.79363
G1 X134.706 Y19.013 E3.82127
G1 X135.33 Y19 E3.84202
G1 X164.45 Y19.001 E4.81056
G1 X165.172 Y19.012 E4.83458
G1 X166.16 Y19.072 E4.8675
G1 X167.124 Y19.218 E4.89993
G1 X168.071 Y19.449 E4.93235
G1 X168.961 Y19.75 E4.9636
G1 X171.659 Y20.794 E5.05981
G1 X174.039 Y21.632 E5.14374
G1 X176.461 Y22.411 E5.22836
G1 X178.854 Y23.107 E5.31125
G1 X181.283 Y23.739 E5.39473
G1 X183.809 Y24.319 E5.48093
G1 X186.22 Y24.803 E5.56272
G1 X188.692 Y25.226 E5.64613
G1 X191.203 Y25.584 E5.73049
G1 X193.692 Y25.866 E5.81381
G1 X196.197 Y26.081 E5.89743
G1 X198.713 Y26.222 E5.98124
G1 X201.246 Y26.294 E6.06553
G1 X203.735 Y26.294 E6.14831
G1 X206.268 Y26.222 E6.23259
G1 X208.786 Y26.079 E6.31648
G1 X211.283 Y25.868 E6.39982
G1 X213.786 Y25.583 E6.48361
G1 X216.279 Y25.228 E6.56736
G1 X218.766 Y24.802 E6.65129
G1 X221.189 Y24.316 E6.73348
G1 X223.688 Y23.743 E6.81876
G1 X226.12 Y23.109 E6.90235
G1 X228.534 Y22.407 E6.98596
G1 X230.931 Y21.637 E7.0697
G1 X233.326 Y20.79 E7.15419
G1 X236.095 Y19.73 E7.25281
G1 X237.002 Y19.429 E7.28459
G1 X237.983 Y19.198 E7.31811
G1 X238.877 Y19.068 E7.34816
G1 X239.706 Y19.013 E7.37579
G1 X240.33 Y19 E7.39655
G1 X269.436 Y19.001 E8.36462
G1 X270.169 Y19.012 E8.389
G1 X271.141 Y19.069 E8.42139
G1 X272.104 Y19.215 E8.45378
G1 X273.05 Y19.444 E8.48616
G1 X273.974 Y19.756 E8.51859
G1 X274.864 Y20.148 E8.55094
G1 X275.687 Y20.599 E8.58215
G1 X276.526 Y21.16 E8.61572
G1 X277.23 Y21.726 E8.64577
G1 X277.983 Y22.451 E8.68053
G1 X278.62 Y23.187 E8.71291
G1 X279.15 Y23.918 E8.74294
G1 X279.686 Y24.815 E8.77769
G1 X280.108 Y25.693 E8.81009
G1 X280.45 Y26.605 E8.84249
G1 X280.71 Y27.543 E8.87486
G1 X280.888 Y28.51 E8.90757
G1 X280.985 Y29.655 E8.94579
G1 X281 Y30.312 E8.96764
G1 X281 Y59.288 E9.93139
G1 X280.983 Y60.239 E9.96303
G1 X280.92 Y61.212 E9.99546
G1 X280.771 Y62.175 E10.02787
G1 X280.538 Y63.117 E10.06014
G1 X280.246 Y63.978 E10.09038
G1 X279.194 Y66.697 E10.18735
G1 X278.36 Y69.061 E10.27072
G1 X277.587 Y71.467 E10.35478
G1 X276.89 Y73.865 E10.43784
G1 X276.255 Y76.305 E10.52169
G1 X275.681 Y78.808 E10.6071
G1 X275.197 Y81.216 E10.6888
G1 X274.77 Y83.714 E10.77309
G1 X274.416 Y86.203 E10.8567
G1 X274.134 Y88.692 E10.94002
G1 X273.919 Y91.197 E11.02364
G1 X273.778 Y93.713 E11.10745
G1 X273.706 Y96.246 E11.19174
G1 X273.706 Y98.758 E11.27529
G1 X273.778 Y101.269 E11.35884
G1 X273.921 Y103.786 E11.44269
G1 X274.132 Y106.283 E11.52603
G1 X274.417 Y108.786 E11.60982
G1 X274.768 Y111.257 E11.69283
G1 X275.198 Y113.77 E11.77763
G1 X275.684 Y116.189 E11.85969
G1 X276.251 Y118.664 E11.94414
G1 X276.884 Y121.096 E12.02773
G1 X277.591 Y123.528 E12.11197
G1 X278.355 Y125.909 E12.19514
G1 X279.208 Y128.319 E12.28016
G1 X280.268 Y131.087 E12.37875
G1 X280.569 Y131.994 E12.41053
G1 X280.801 Y132.975 E12.44406
G1 X280.931 Y133.869 E12.47411
G1 X280.985 Y134.673 E12.50091
G1 X281 Y135.312 E12.52217
G1 X281 Y164.288 E13.48591
G1 X280.983 Y165.239 E13.51755
G1 X280.92 Y166.212 E13.54998
G1 X280.771 Y167.175 E13.58239
G1 X280.538 Y168.117 E13.61467
G1 X280.246 Y168.978 E13.64491
G1 X279.194 Y171.697 E13.74187
G1 X278.36 Y174.061 E13.82525
G1 X277.587 Y176.467 E13.9093
G1 X276.89 Y178.865 E13.99236
G1 X276.255 Y181.305 E14.07622
G1 X275.681 Y183.808 E14.16163
G1 X275.197 Y186.216 E14.24332
G1 X274.77 Y188.714 E14.32761
G1 X274.416 Y191.203 E14.41123
G1 X274.134 Y193.692 E14.49454
G1 X273.919 Y196.197 E14.57816
G1 X273.778 Y198.713 E14.66198
G1 X273.706 Y201.246 E14.74626
G1 X273.706 Y203.758 E14.82981
G1 X273.778 Y206.269 E14.91336
G1 X273.921 Y208.786 E14.99721
G1 X274.132 Y211.283 E15.08056
G1 X274.417 Y213.786 E15.16435
G1 X274.768 Y216.257 E15.24736
G1 X275.198 Y218.77 E15.33215
G1 X275.684 Y221.189 E15.41422
G1 X276.251 Y223.664 E15.49867
G1 X276.884 Y226.096 E15.58225
G1 X277.591 Y228.528 E15.66649
G1 X278.355 Y230.909 E15.74966
G1 X279.208 Y233.319 E15.83469
G1 X280.268 Y236.087 E15.93327
G1 X280.569 Y236.994 E15.96506
G1 X280.801 Y237.975 E15.99859
G1 X280.931 Y238.869 E16.02863
G1 X280.985 Y239.673 E16.05543
G1 X281 Y240.33 E16.07729
G1 X280.999 Y269.4 E17.04416
G1 X280.988 Y270.163 E17.06954
G1 X280.931 Y271.136 E17.10196
G1 X280.786 Y272.099 E17.13435
G1 X280.557 Y273.045 E17.16673
G1 X280.246 Y273.969 E17.19915
G1 X279.854 Y274.86 E17.23153
G1 X279.386 Y275.712 E17.26386
G1 X278.864 Y276.493 E17.2951
G1 X278.231 Y277.278 E17.32864
G1 X277.606 Y277.929 E17.35866
G1 X276.817 Y278.617 E17.39348
G1 X276.057 Y279.167 E17.42468
G1 X275.19 Y279.684 E17.45825
G1 X274.312 Y280.106 E17.49065
G1 X273.401 Y280.448 E17.52302
G1 X272.462 Y280.709 E17.55543
G1 X271.496 Y280.887 E17.5881
G1 X270.345 Y280.985 E17.62653
G1 X269.67 Y281 E17.64898
G1 X240.55 Y280.999 E18.61752
G1 X239.828 Y280.988 E18.64153
G1 X238.84 Y280.928 E18.67446
G1 X237.876 Y280.782 E18.70688
G1 X236.929 Y280.551 E18.7393
G1 X236.039 Y280.25 E18.77055
G1 X233.333 Y279.204 E18.86705
G1 X230.961 Y278.368 E18.95069
G1 X228.533 Y277.587 E19.03553
G1 X226.144 Y276.892 E19.11828
G1 X223.717 Y276.261 E19.20168
G1 X221.191 Y275.681 E19.28789
G1 X218.784 Y275.197 E19.36954
G1 X216.308 Y274.774 E19.45309
G1 X213.797 Y274.416 E19.53745
G1 X211.308 Y274.134 E19.62076
G1 X208.803 Y273.919 E19.70439
G1 X206.287 Y273.778 E19.7882
G1 X203.754 Y273.706 E19.87248
G1 X201.265 Y273.706 E19.95527
G1 X198.732 Y273.778 E20.03955
G1 X196.214 Y273.921 E20.12343
G1 X193.717 Y274.132 E20.20678
G1 X191.214 Y274.417 E20.29057
G1 X188.721 Y274.772 E20.37432
G1 X186.23 Y275.198 E20.45838
G1 X183.811 Y275.684 E20.54044
G1 X181.312 Y276.257 E20.62571
G1 X178.883 Y276.89 E20.7092
G1 X176.472 Y277.591 E20.79271
G1 X174.069 Y278.363 E20.87666
G1 X171.674 Y279.21 E20.96115
G1 X168.905 Y280.27 E21.05977
G1 X167.998 Y280.571 E21.09155
G1 X167.017 Y280.802 E21.12507
G1 X166.123 Y280.932 E21.15512
G1 X165.294 Y280.987 E21.18275
G1 X164.67 Y281 E21.20351
G1 X135.55 Y280.999 E22.17205
G1 X134.828 Y280.988 E22.19606
G1 X133.84 Y280.928 E22.22899
G1 X132.876 Y280.782 E22.26141
G1 X131.929 Y280.551 E22.29383
G1 X131.039 Y280.25 E22.32508
G1 X128.333 Y279.204 E22.42158
G1 X125.961 Y278.368 E22.50522
G1 X123.533 Y277.587 E22.59006
G1 X121.144 Y276.892 E22.67281
G1 X118.717 Y276.261 E22.75621
G1 X116.191 Y275.681 E22.84242
G1 X113.784 Y275.197 E22.92407
G1 X111.308 Y274.774 E23.00762
G1 X108.797 Y274.416 E23.09198
G1 X106.308 Y274.134 E23.1753
G1 X103.803 Y273.919 E23.25892
G1 X101.287 Y273.778 E23.34273
G1 X98.754 Y273.706 E23.42701
G1 X96.265 Y273.706 E23.5098
G1 X93.732 Y273.778 E23.59408
G1 X91.214 Y273.921 E23.67796
G1 X88.717 Y274.132 E23.76131
G1 X86.214 Y274.417 E23.8451
G1 X83.721 Y274.772 E23.92885
G1 X81.23 Y275.198 E24.01291
G1 X78.811 Y275.684 E24.09497
G1 X76.312 Y276.257 E24.18024
G1 X73.883 Y276.89 E24.26373
G1 X71.472 Y277.591 E24.34724
G1 X69.069 Y278.363 E24.43119
G1 X66.674 Y279.21 E24.51568
G1 X63.905 Y280.27 E24.6143
G1 X62.998 Y280.571 E24.64608
G1 X62.017 Y280.802 E24.6796
G1 X61.123 Y280.932 E24.70965
G1 X60.294 Y280.987 E24.73728
G1 X59.67 Y281 E24.75804
G1 X30.564 Y280.999 E25.72611
G1 X29.831 Y280.988 E25.75049
G1 X28.859 Y280.931 E25.78288
G1 X27.896 Y280.785 E25.81527
G1 X26.95 Y280.556 E25.84765
G1 X26.026 Y280.244 E25.88008
G1 X25.136 Y279.852 E25.91243
G1 X24.313 Y279.401 E25.94364
G1 X23.474 Y278.84 E25.97721
G1 X22.77 Y278.274 E26.00726
G1 X22.017 Y277.549 E26.04202
G1 X21.38 Y276.813 E26.0744
G1 X20.85 Y276.082 E26.10443
G1 X20.314 Y275.185 E26.13918
G1 X19.892 Y274.307 E26.17158
G1 X19.55 Y273.395 E26.20398
G1 X19.29 Y272.457 E26.23635
G1 X19.112 Y271.488 E26.26912
G1 X19.014 Y270.309 E26.30847
G1 X19 Y269.658 E26.33013
G1 X19.001 Y240.536 E27.29873
G1 X19.014 Y239.792 E27.32348
G1 X19.075 Y238.819 E27.35591
G1 X19.222 Y237.856 E27.38831
G1 X19.454 Y236.911 E27.42067
G1 X19.752 Y236.031 E27.45157
G1 X20.798 Y233.327 E27.548
G1 X21.64 Y230.939 E27.63222
G1 X22.413 Y228.533 E27.71627
G1 X23.11 Y226.135 E27.79933
G1 X23.745 Y223.695 E27.88319
G1 X24.319 Y221.192 E27.9686
G1 X24.803 Y218.784 E28.05029
G1 X25.23 Y216.286 E28.13458
G1 X25.584 Y213.797 E28.2182
G1 X25.866 Y211.308 E28.30151
G1 X26.081 Y208.803 E28.38514
G1 X26.222 Y206.287 E28.46895
G1 X26.294 Y203.754 E28.55323
G1 X26.294 Y201.242 E28.63678
G1 X26.222 Y198.731 E28.72033
G1 X26.079 Y196.216 E28.80412
G1 X25.868 Y193.714 E28.88763
G1 X25.584 Y191.22 E28.97111
G1 X25.226 Y188.712 E29.05538
G1 X24.8 Y186.218 E29.13953
G1 X24.311 Y183.785 E29.22207
G1 X23.743 Y181.312 E29.30646
G1 X23.104 Y178.859 E29.39077
G1 X22.409 Y176.471 E29.47349
G1 X21.63 Y174.047 E29.55818
G1 X20.788 Y171.664 E29.64224
G1 X19.728 Y168.9 E29.7407
G1 X19.432 Y168.01 E29.77189
G1 X19.2 Y167.028 E29.80545
G1 X19.07 Y166.134 E29.8355
G1 X19.015 Y165.327 E29.8624
G1 X19 Y164.67 E29.88426
G1 X19.001 Y135.536 E30.85326
G1 X19.014 Y134.792 E30.87801
G1 X19.075 Y133.819 E30.91044
G1 X19.222 Y132.856 E30.94284
G1 X19.454 Y131.911 E30.9752
G1 X19.752 Y131.031 E31.0061
G1 X20.798 Y128.327 E31.10253
G1 X21.64 Y125.939 E31.18675
G1 X22.413 Y123.533 E31.2708
G1 X23.11 Y121.135 E31.35386
G1 X23.745 Y118.695 E31.43772
G1 X24.319 Y116.192 E31.52313
G1 X24.803 Y113.784 E31.60482
G1 X25.23 Y111.286 E31.68911
G1 X25.584 Y108.797 E31.77273
G1 X25.866 Y106.308 E31.85604
G1 X26.081 Y103.803 E31.93967
G1 X26.222 Y101.287 E32.02348
G1 X26.294 Y98.754 E32.10776
G1 X26.294 Y96.242 E32.19131
G1 X26.222 Y93.731 E32.27486
G1 X26.079 Y91.216 E32.35865
G1 X25.868 Y88.714 E32.44216
G1 X25.584 Y86.22 E32.52565
G1 X25.226 Y83.712 E32.60991
G1 X24.8 Y81.218 E32.69406
G1 X24.311 Y78.785 E32.7766
G1 X23.743 Y76.312 E32.861
G1 X23.104 Y73.859 E32.9453
G1 X22.409 Y71.471 E33.02803
G1 X21.63 Y69.047 E33.11271
G1 X20.788 Y66.664 E33.19677
G1 X19.728 Y63.9 E33.29523
G1 X19.432 Y63.01 E33.32643
G1 X19.2 Y62.028 E33.35999
G1 X19.07 Y61.134 E33.39003
G1 X19.015 Y60.327 E33.41694
G1 X19 Y59.67 E33.43879
G1 X19.001 Y30.525 E34.40816
G1 X19.012 Y29.825 E34.43145
G1 X19.07 Y28.852 E34.46387
G1 X19.216 Y27.889 E34.49626
G1 X19.446 Y26.943 E34.52864
G1 X19.759 Y26.02 E34.56106
G1 X20.151 Y25.13 E34.5934
G1 X20.621 Y24.277 E34.6258
G1 X21.164 Y23.469 E34.65817
G1 X21.731 Y22.765 E34.68824
G1 X22.456 Y22.013 E34.72298
G0 F6000 X22.718 Y22.315
G1 F1200 X23.427 Y21.7 E34.7542
G1 X24.159 Y21.17 E34.78426
G1 X24.995 Y20.671 E34.81664
G1 X25.84 Y20.264 E34.84783
G1 X26.719 Y19.933 E34.87907
G1 X27.622 Y19.682 E34.91025
G1 X28.55 Y19.51 E34.94164
G1 X29.689 Y19.414 E34.97966
G1 X30.321 Y19.4 E35.00068
G1 X59.298 Y19.4 E35.96446
G1 X60.165 Y19.412 E35.9933
G1 X61.101 Y19.468 E36.02449
G1 X62.03 Y19.607 E36.05573
G1 X62.943 Y19.828 E36.08697
G1 X63.817 Y20.123 E36.11765
G1 X66.519 Y21.168 E36.21401
G1 X68.917 Y22.013 E36.29857
G1 X71.342 Y22.793 E36.3833
G1 X73.749 Y23.493 E36.46667
G1 X76.193 Y24.129 E36.55067
G1 X78.719 Y24.709 E36.63687
G1 X81.139 Y25.195 E36.71897
G1 X83.636 Y25.622 E36.80322
G1 X86.147 Y25.98 E36.88758
G1 X88.658 Y26.265 E36.97164
G1 X91.163 Y26.479 E37.05526
G1 X93.702 Y26.622 E37.13984
G1 X96.235 Y26.694 E37.22412
G1 X98.746 Y26.694 E37.30763
G1 X101.279 Y26.622 E37.39192
G1 X103.82 Y26.479 E37.47656
G1 X106.317 Y26.266 E37.55992
G1 X108.842 Y25.979 E37.64444
G1 X111.335 Y25.624 E37.72819
G1 X113.847 Y25.194 E37.81296
G1 X116.278 Y24.706 E37.89543
G1 X118.777 Y24.133 E37.9807
G1 X121.228 Y23.494 E38.06495
G1 X123.653 Y22.789 E38.14894
G1 X126.053 Y22.018 E38.23278
G1 X128.469 Y21.164 E38.31801
G1 X131.221 Y20.11 E38.41603
G1 X132.128 Y19.809 E38.44781
G1 X133.041 Y19.594 E38.47901
G1 X133.935 Y19.464 E38.50906
G1 X134.714 Y19.413 E38.53502
G1 X135.33 Y19.4 E38.55551
G1 X164.444 Y19.401 E39.52385
G1 X165.148 Y19.411 E39.54727
G1 X166.101 Y19.468 E39.57902
G1 X167.03 Y19.607 E39.61026
G1 X167.943 Y19.828 E39.64151
G1 X168.817 Y20.123 E39.67219
G1 X171.519 Y21.168 E39.76854
G1 X173.917 Y22.013 E39.85311
G1 X176.342 Y22.793 E39.93783
G1 X178.749 Y23.493 E40.02121
G1 X181.193 Y24.129 E40.1052
G1 X183.719 Y24.709 E40.1914
G1 X186.139 Y25.195 E40.2735
G1 X188.636 Y25.622 E40.35776
G1 X191.147 Y25.98 E40.44212
G1 X193.658 Y26.265 E40.52617
G1 X196.163 Y26.479 E40.60979
G1 X198.702 Y26.622 E40.69437
G1 X201.235 Y26.694 E40.77865
G1 X203.746 Y26.694 E40.86217
G1 X206.279 Y26.622 E40.94645
G1 X208.82 Y26.478 E41.0311
G1 X211.317 Y26.266 E41.11445
G1 X213.842 Y25.979 E41.19897
G1 X216.335 Y25.624 E41.28273
G1 X218.847 Y25.194 E41.36749
G1 X221.278 Y24.706 E41.44996
G1 X223.777 Y24.133 E41.53523
G1 X226.228 Y23.494 E41.61948
G1 X228.653 Y22.789 E41.70348
G1 X231.053 Y22.018 E41.78732
G1 X233.469 Y21.164 E41.87255
G1 X236.221 Y20.11 E41.97056
G1 X237.128 Y19.809 E42.00235
G1 X238.041 Y19.594 E42.03354
G1 X238.935 Y19.464 E42.06359
G1 X239.714 Y19.413 E42.08956
G1 X240.33 Y19.4 E42.11005
G1 X269.43 Y19.401 E43.07792
G1 X270.146 Y19.411 E43.10174
G1 X271.082 Y19.465 E43.13292
G1 X272.011 Y19.604 E43.16416
G1 X272.923 Y19.823 E43.19536
G1 X273.813 Y20.122 E43.22658
G1 X274.672 Y20.499 E43.25778
G1 X275.495 Y20.95 E43.289
G1 X276.275 Y21.472 E43.32021
G1 X276.979 Y22.038 E43.35026
G1 X277.681 Y22.713 E43.38265
G1 X278.296 Y23.422 E43.41387
G1 X278.826 Y24.153 E43.4439
G1 X279.326 Y24.989 E43.4763
G1 X279.734 Y25.834 E43.50751
G1 X280.065 Y26.712 E43.53872
G1 X280.317 Y27.616 E43.56993
G1 X280.489 Y28.544 E43.60132
G1 X280.586 Y29.689 E43.63954
G1 X280.6 Y30.321 E43.66057
G1 X280.6 Y59.281 E44.62378
G1 X280.584 Y60.214 E44.65481
G1 X280.525 Y61.151 E44.68604
G1 X280.383 Y62.079 E44.71727
G1 X280.159 Y62.989 E44.74844
G1 X279.873 Y63.834 E44.77811
G1 X278.821 Y66.553 E44.87507
G1 X277.983 Y68.928 E44.95884
G1 X277.206 Y71.345 E45.04328
G1 X276.506 Y73.753 E45.12669
G1 X275.868 Y76.204 E45.21092
G1 X275.291 Y78.719 E45.29675
G1 X274.805 Y81.137 E45.37878
G1 X274.376 Y83.647 E45.46347
G1 X274.02 Y86.147 E45.54746
