;FLAVOR:Marlin
;TIME:849
;Filament used: 0.519836m
;Layer height: 0.2
;MINX:6.597
;MINY:2.227
;MINZ:0.2
;MAXX:293.403
;MAXY:286.571
;MAXZ:2.6
;Generated with Cura_SteamEngine 5.4.0
M82 ;absolute extrusion mode
M104 S160  ; Start warming extruder to 160
M190 S50 ; Wait for Heat Bed temperature
G28        ; Home all axes
G29 A      ; Activate the UBL System.
G29 L1     ; Load UBL
G29 J2     ; 4-point level
G29 F10.0  ; Fade to 10mm
G92 E0     ; Reset Extruder

G1 Z2.0 F3000                   ; Move Z Axis up little to prevent scratching of Heat Bed
G1 X0.1 Y20 Z0.3 F5000.0        ; Move to start position
M109 S200 ; Wait for extruder temperature
G1 X0.1 Y200.0 Z0.3 F1500.0 E15 ; Draw the first line
G1 X0.4 Y200.0 Z0.3 F5000.0     ; Move to side a little
G1 X0.4 Y20 Z0.3 F1500.0 E30    ; Draw the second line
G92 E0                          ; Reset Extruder
G1 Z2.0 F3000                   ; Move Z Axis up little to prevent scratching of Heat Bed
G1 X5 Y20 Z0.3 F5000.0          ; Move over to prevent blob squish
G92 E0
G92 E0
G1 F2700 E-5
;LAYER_COUNT:13
;LAYER:0
M107
G0 F6000 X8.772 Y6.687 Z0.2
;TYPE:SKIRT
G1 F2700 E0
G1 F1200 X9.386 Y5.93 E0.03242
G1 X10.064 Y5.231 E0.06481
G1 X10.774 Y4.617 E0.09603
G1 X11.592 Y4.027 E0.12957
G1 X12.368 Y3.565 E0.15961
G1 X13.309 Y3.113 E0.19433
G1 X14.222 Y2.771 E0.22676
G1 X15.126 Y2.521 E0.25795
G1 X16.128 Y2.337 E0.29184
G1 X17.278 Y2.242 E0.33022
G1 X17.927 Y2.228 E0.35181
G1 X281.707 Y2.227 E9.12517
G1 X282.587 Y2.24 E9.15444
G1 X283.559 Y2.299 E9.18683
G1 X284.522 Y2.445 E9.21922
G1 X285.469 Y2.676 E9.25164
G1 X286.357 Y2.976 E9.28282
G1 X287.249 Y3.366 E9.3152
G1 X288.132 Y3.853 E9.34874
G1 X288.883 Y4.355 E9.37878
G1 X289.698 Y5.013 E9.41362
G1 X290.396 Y5.691 E9.44599
G1 X291.032 Y6.428 E9.47837
G1 X291.602 Y7.218 E9.51077
G1 X292.064 Y7.994 E9.5408
G1 X292.518 Y8.936 E9.57558
G1 X292.847 Y9.814 E9.60677
G1 X293.116 Y10.786 E9.64031
G1 X293.293 Y11.752 E9.67298
G1 X293.388 Y12.882 E9.71069
G1 X293.403 Y13.557 E9.73315
G1 X293.402 Y24.476 E10.09632
G1 X293.39 Y25.237 E10.12163
G1 X293.332 Y26.21 E10.15405
G1 X293.186 Y27.173 E10.18645
G1 X292.955 Y28.12 E10.21887
G1 X292.642 Y29.042 E10.25125
G1 X292.25 Y29.933 E10.28363
G1 X291.798 Y30.755 E10.31483
G1 X291.236 Y31.593 E10.34839
G1 X290.646 Y32.323 E10.37961
G1 X289.943 Y33.049 E10.41322
G1 X289.207 Y33.685 E10.44557
G1 X288.417 Y34.255 E10.47797
G1 X287.641 Y34.718 E10.50803
G1 X286.701 Y35.171 E10.54273
G1 X285.788 Y35.513 E10.57516
G1 X284.85 Y35.772 E10.60753
G1 X283.893 Y35.947 E10.63988
G1 X282.937 Y36.038 E10.67182
G1 X282.389 Y36.051 E10.69006
G1 X281.396 Y36.047 E10.72308
G1 X280.654 Y36.025 E10.74777
G1 X279.683 Y35.951 E10.78016
G1 X278.723 Y35.792 E10.81253
G1 X277.848 Y35.569 E10.84256
G1 X276.869 Y35.225 E10.87707
G1 X276.204 Y34.929 E10.90128
G1 X275.461 Y34.569 E10.92874
G1 X273.115 Y33.473 E11.01487
G1 X270.761 Y32.453 E11.1002
G1 X268.443 Y31.527 E11.18322
G1 X266.103 Y30.666 E11.26615
G1 X263.723 Y29.869 E11.34963
G1 X261.287 Y29.127 E11.43432
G1 X258.875 Y28.467 E11.5175
G1 X256.425 Y27.87 E11.60137
G1 X253.937 Y27.338 E11.68599
G1 X251.461 Y26.881 E11.76973
G1 X249.01 Y26.501 E11.85223
G1 X246.51 Y26.184 E11.93604
G1 X243.976 Y25.937 E12.02072
G1 X241.499 Y25.765 E12.10331
G1 X238.969 Y25.661 E12.18753
G1 X236.511 Y25.628 E12.26929
G1 X63.501 Y25.627 E18.02362
G1 X60.918 Y25.664 E18.10954
G1 X58.349 Y25.773 E18.19507
G1 X55.875 Y25.948 E18.27756
G1 X53.402 Y26.193 E18.36021
G1 X50.849 Y26.52 E18.44582
G1 X48.354 Y26.911 E18.52982
G1 X45.949 Y27.359 E18.61118
G1 X43.447 Y27.898 E18.69631
G1 X41.026 Y28.49 E18.7792
G1 X38.564 Y29.169 E18.86415
G1 X36.174 Y29.9 E18.94727
G1 X33.764 Y30.712 E19.03186
G1 X31.414 Y31.58 E19.11518
G1 X29.102 Y32.509 E19.19805
G1 X26.781 Y33.519 E19.28224
G1 X23.776 Y34.937 E19.39276
G1 X22.883 Y35.321 E19.42509
G1 X22.026 Y35.606 E19.45513
G1 X21.008 Y35.845 E19.48991
G1 X20.115 Y35.973 E19.51991
G1 X19.303 Y36.027 E19.54698
G1 X18.272 Y36.051 E19.58128
G1 X17.555 Y36.05 E19.60513
G1 X16.653 Y36.009 E19.63516
G1 X15.616 Y35.868 E19.66997
G1 X14.701 Y35.659 E19.70118
G1 X13.743 Y35.348 E19.73468
G1 X12.846 Y34.966 E19.76711
G1 X11.987 Y34.506 E19.79952
G1 X11.201 Y33.992 E19.83076
G1 X10.409 Y33.368 E19.86429
G1 X9.701 Y32.699 E19.89669
G1 X9.078 Y31.998 E19.92788
G1 X8.477 Y31.186 E19.96148
G1 X7.971 Y30.356 E19.99381
G1 X7.568 Y29.548 E20.02384
G1 X7.186 Y28.575 E20.05861
G1 X6.932 Y27.709 E20.08863
G1 X6.728 Y26.683 E20.12342
G1 X6.627 Y25.729 E20.15533
G1 X6.607 Y25.193 E20.17317
G1 X6.597 Y24.362 E20.20081
G1 X6.598 Y13.753 E20.55367
G1 X6.61 Y13.04 E20.57738
G1 X6.669 Y12.066 E20.60984
G1 X6.816 Y11.103 E20.64224
G1 X7.048 Y10.158 E20.6746
G1 X7.348 Y9.27 E20.70578
G1 X7.754 Y8.345 E20.73938
G1 X8.189 Y7.553 E20.76943
G1 X8.772 Y6.687 E20.80415
G0 F6000 X9.083 Y6.938
G1 F1200 X9.673 Y6.208 E20.83537
G1 X10.326 Y5.534 E20.86658
G1 X11.036 Y4.92 E20.8978
G1 X11.797 Y4.371 E20.92901
G1 X12.573 Y3.909 E20.95905
G1 X13.45 Y3.487 E20.99142
G1 X14.329 Y3.157 E21.02265
G1 X15.233 Y2.907 E21.05385
G1 X16.161 Y2.736 E21.08523
G1 X17.311 Y2.641 E21.12361
G1 X17.927 Y2.628 E21.1441
G1 X281.701 Y2.627 E29.91726
G1 X282.563 Y2.639 E29.94594
G1 X283.5 Y2.695 E29.97716
G1 X284.428 Y2.834 E30.00837
G1 X285.341 Y3.055 E30.03961
G1 X286.197 Y3.343 E30.06965
G1 X287.089 Y3.733 E30.10203
G1 X287.91 Y4.186 E30.13322
G1 X288.661 Y4.688 E30.16326
G1 X289.42 Y5.3 E30.19569
G1 X290.094 Y5.953 E30.2269
G1 X290.708 Y6.662 E30.2581
G1 X291.258 Y7.423 E30.28933
G1 X291.72 Y8.199 E30.31936
G1 X292.143 Y9.076 E30.35175
G1 X292.472 Y9.954 E30.38293
G1 X292.723 Y10.859 E30.41417
G1 X292.894 Y11.786 E30.44552
G1 X292.989 Y12.916 E30.48324
G1 X293.003 Y13.557 E30.50457
G1 X293.002 Y24.47 E30.86753
G1 X292.991 Y25.214 E30.89228
G1 X292.936 Y26.151 E30.9235
G1 X292.797 Y27.079 E30.95471
G1 X292.576 Y27.992 E30.98595
G1 X292.276 Y28.881 E31.01716
G1 X291.899 Y29.74 E31.04836
G1 X291.447 Y30.562 E31.07956
G1 X290.924 Y31.342 E31.1108
G1 X290.358 Y32.045 E31.14081
G1 X289.681 Y32.747 E31.17325
G1 X288.973 Y33.361 E31.20442
G1 X288.212 Y33.911 E31.23565
G1 X287.436 Y34.374 E31.26571
G1 X286.56 Y34.797 E31.29806
G1 X285.681 Y35.128 E31.3293
G1 X284.777 Y35.379 E31.3605
G1 X283.855 Y35.549 E31.39169
G1 X282.927 Y35.638 E31.42269
G1 X282.391 Y35.651 E31.44053
G1 X281.408 Y35.647 E31.47322
G1 X280.684 Y35.626 E31.49731
G1 X279.748 Y35.556 E31.52853
G1 X278.822 Y35.404 E31.55974
G1 X277.947 Y35.181 E31.58978
G1 X277.032 Y34.86 E31.62203
G1 X276.378 Y34.569 E31.64583
G1 X275.635 Y34.209 E31.67329
G1 X273.274 Y33.106 E31.75997
G1 X270.92 Y32.086 E31.8453
G1 X268.581 Y31.152 E31.92907
G1 X266.23 Y30.287 E32.01239
G1 X263.84 Y29.486 E32.09622
G1 X261.404 Y28.744 E32.18092
G1 X258.97 Y28.078 E32.26485
G1 X256.52 Y27.481 E32.34872
G1 X254.021 Y26.947 E32.43372
G1 X251.529 Y26.487 E32.518
G1 X249.06 Y26.104 E32.6011
G1 X246.56 Y25.787 E32.68492
G1 X244.007 Y25.538 E32.77023
G1 X241.515 Y25.365 E32.85332
G1 X238.985 Y25.261 E32.93754
G1 X236.516 Y25.228 E33.01966
G1 X63.495 Y25.227 E38.77437
G1 X60.901 Y25.264 E38.86065
G1 X58.332 Y25.373 E38.94617
G1 X55.844 Y25.549 E39.02913
G1 X53.351 Y25.796 E39.11245
G1 X50.798 Y26.123 E39.19806
G1 X48.292 Y26.516 E39.28243
G1 X45.865 Y26.968 E39.36454
G1 X43.352 Y27.509 E39.45004
G1 X40.931 Y28.101 E39.53293
G1 X38.447 Y28.786 E39.61863
G1 X36.057 Y29.517 E39.70176
G1 X33.636 Y30.333 E39.78674
G1 X31.275 Y31.205 E39.87045
G1 X28.942 Y32.142 E39.95407
G1 X26.621 Y33.152 E40.03826
G1 X24.177 Y34.299 E40.12805
G1 X23.618 Y34.57 E40.14871
G1 X22.757 Y34.941 E40.1799
G1 X21.9 Y35.226 E40.20993
G1 X20.951 Y35.449 E40.24236
G1 X20.058 Y35.577 E40.27236
G1 X19.294 Y35.627 E40.29783
G1 X18.273 Y35.651 E40.3318
G1 X17.573 Y35.65 E40.35508
G1 X16.671 Y35.609 E40.38511
G1 X15.705 Y35.478 E40.41753
G1 X14.79 Y35.269 E40.44875
G1 X13.899 Y34.98 E40.4799
G1 X13.034 Y34.613 E40.51116
G1 X12.206 Y34.171 E40.54237
G1 X11.42 Y33.657 E40.57361
G1 X10.683 Y33.077 E40.6048
G1 X10 Y32.433 E40.63603
G1 X9.377 Y31.732 E40.66722
G1 X8.818 Y30.977 E40.69846
G1 X8.329 Y30.177 E40.72965
G1 X7.926 Y29.369 E40.75968
G1 X7.57 Y28.462 E40.79209
G1 X7.316 Y27.596 E40.8221
G1 X7.126 Y26.64 E40.85452
G1 X7.027 Y25.714 E40.8855
G1 X7.007 Y25.188 E40.90301
G1 X6.997 Y24.362 E40.93048
G1 X6.998 Y13.759 E41.28314
G1 X7.009 Y13.064 E41.30626
G1 X7.065 Y12.126 E41.33751
G1 X7.205 Y11.198 E41.36872
G1 X7.427 Y10.286 E41.39994
G1 X7.715 Y9.43 E41.42998
G1 X8.105 Y8.538 E41.46236
G1 X8.54 Y7.746 E41.49242
G1 X9.083 Y6.938 E41.52479
G0 F6000 X9.394 Y7.189
G1 F1200 X9.961 Y6.486 E41.55483
G1 X10.588 Y5.836 E41.58487
G1 X11.27 Y5.244 E41.61491
G1 X12.002 Y4.715 E41.64495
G1 X12.778 Y4.253 E41.67499
G1 X13.591 Y3.861 E41.70501
G1 X14.436 Y3.542 E41.73505
G1 X15.306 Y3.3 E41.76508
G1 X16.194 Y3.135 E41.79512
G1 X17.32 Y3.041 E41.8327
G1 X17.927 Y3.028 E41.8529
G1 X281.696 Y3.027 E50.62589
G1 X282.54 Y3.038 E50.65396
G1 X283.442 Y3.091 E50.68401
G1 X284.335 Y3.223 E50.71404
G1 X285.213 Y3.434 E50.74407
G1 X286.069 Y3.722 E50.77411
G1 X286.896 Y4.084 E50.80414
G1 X287.688 Y4.519 E50.83419
G1 X288.439 Y5.021 E50.86424
G1 X289.142 Y5.588 E50.89428
G1 X289.792 Y6.215 E50.92431
G1 X290.384 Y6.897 E50.95435
G1 X290.914 Y7.628 E50.98438
G1 X291.376 Y8.404 E51.01442
G1 X291.769 Y9.217 E51.04445
G1 X292.087 Y10.062 E51.07448
G1 X292.33 Y10.932 E51.10453
G1 X292.495 Y11.82 E51.13457
G1 X292.59 Y12.95 E51.17228
G1 X292.603 Y13.557 E51.19248
G1 X292.602 Y24.464 E51.55525
G1 X292.592 Y25.191 E51.57943
G1 X292.54 Y26.093 E51.60948
G1 X292.408 Y26.986 E51.6395
G1 X292.197 Y27.865 E51.66957
G1 X291.91 Y28.721 E51.6996
G1 X291.548 Y29.548 E51.72962
G1 X291.114 Y30.34 E51.75966
G1 X290.612 Y31.091 E51.78971
G1 X290.046 Y31.794 E51.81972
G1 X289.419 Y32.445 E51.84979
G1 X288.738 Y33.037 E51.8798
G1 X288.007 Y33.567 E51.90983
G1 X287.231 Y34.03 E51.93988
G1 X286.418 Y34.423 E51.96992
G1 X285.573 Y34.743 E51.99997
G1 X284.704 Y34.986 E52.02998
G1 X283.816 Y35.151 E52.06002
G1 X282.917 Y35.238 E52.09006
G1 X282.393 Y35.251 E52.1075
G1 X281.419 Y35.247 E52.13989
G1 X280.713 Y35.227 E52.16338
G1 X279.812 Y35.161 E52.19343
G1 X278.921 Y35.016 E52.22346
G1 X278.046 Y34.793 E52.25349
G1 X277.194 Y34.494 E52.28352
G1 X276.552 Y34.209 E52.30688
G1 X275.809 Y33.849 E52.33434
G1 X273.433 Y32.739 E52.42157
G1 X271.079 Y31.719 E52.5069
G1 X268.719 Y30.777 E52.59141
G1 X266.357 Y29.908 E52.67512
G1 X263.957 Y29.103 E52.75932
G1 X261.521 Y28.361 E52.84401
G1 X259.065 Y27.689 E52.9287
G1 X256.615 Y27.092 E53.01257
G1 X254.105 Y26.556 E53.09794
G1 X251.597 Y26.093 E53.18277
G1 X249.11 Y25.707 E53.26647
G1 X246.61 Y25.39 E53.35029
G1 X244.038 Y25.139 E53.43624
G1 X241.531 Y24.965 E53.51982
G1 X239.001 Y24.861 E53.60404
G1 X236.521 Y24.828 E53.68654
G1 X63.489 Y24.827 E59.4416
G1 X60.884 Y24.864 E59.52826
G1 X58.315 Y24.973 E59.61378
G1 X55.813 Y25.15 E59.6972
G1 X53.3 Y25.399 E59.78119
G1 X50.747 Y25.726 E59.8668
G1 X48.23 Y26.121 E59.95154
G1 X45.781 Y26.577 E60.0344
G1 X43.257 Y27.12 E60.12027
G1 X40.836 Y27.712 E60.20316
G1 X38.33 Y28.403 E60.28962
G1 X35.94 Y29.134 E60.37275
G1 X33.508 Y29.954 E60.45811
G1 X31.136 Y30.83 E60.54221
G1 X28.782 Y31.775 E60.62658
G1 X26.461 Y32.785 E60.71077
G1 X24.002 Y33.939 E60.80111
G1 X23.459 Y34.203 E60.8212
G1 X22.631 Y34.561 E60.8512
G1 X21.774 Y34.846 E60.88124
G1 X20.894 Y35.053 E60.9113
G1 X20.001 Y35.181 E60.94131
G1 X19.284 Y35.227 E60.96521
G1 X18.274 Y35.251 E60.99881
G1 X17.591 Y35.25 E61.02153
G1 X16.689 Y35.209 E61.05156
G1 X15.794 Y35.088 E61.0816
G1 X14.913 Y34.888 E61.11164
G1 X14.054 Y34.611 E61.14166
G1 X13.222 Y34.26 E61.1717
G1 X12.424 Y33.836 E61.20175
G1 X11.667 Y33.343 E61.2318
G1 X10.957 Y32.785 E61.26183
G1 X10.299 Y32.167 E61.29186
G1 X9.698 Y31.493 E61.32189
G1 X9.159 Y30.768 E61.35194
G1 X8.687 Y29.998 E61.38198
G1 X8.284 Y29.19 E61.41201
G1 X7.954 Y28.349 E61.44206
G1 X7.7 Y27.483 E61.47208
G1 X7.524 Y26.597 E61.50212
G1 X7.427 Y25.699 E61.53216
G1 X7.407 Y25.183 E61.54934
G1 X7.397 Y24.362 E61.57665
G1 X7.398 Y13.765 E61.9291
G1 X7.408 Y13.087 E61.95166
G1 X7.461 Y12.185 E61.98171
G1 X7.594 Y11.292 E62.01174
G1 X7.806 Y10.414 E62.04178
G1 X8.094 Y9.558 E62.07182
G1 X8.456 Y8.731 E62.10184
G1 X8.891 Y7.939 E62.1319
G1 X9.394 Y7.189 E62.16193
G1 F2700 E57.16193
;MESH:Linear Spiral Calibration.stl
G0 F6000 X16.932 Y13.642
G0 X18.297 Y14.627
;TYPE:WALL-INNER
G1 F2700 E62.16193
G1 F800 X18.297 Y24.351 E62.64707
G0 F6000 X18.297 Y14.627
G1 F943 X18.565 Y14.196 E62.66855
G1 F933.9 X18.876 Y13.932 E62.68598
G1 X18.417 Y13.838 E62.70601
G1 F1145.6 X18.207 Y13.838 E62.71332
G1 X18.207 Y14.048 E62.72064
G1 F943 X18.297 Y14.627 E62.74544
G0 F6000 X18.876 Y13.932
G1 F788.2 X37.599 Y13.932 E63.69354
G1 F789.5 X56.322 Y13.932 E64.64009
G1 X75.045 Y13.932 E65.58664
G1 F790.8 X93.768 Y13.931 E66.53163
G1 F792.1 X112.491 Y13.931 E67.47507
G1 X131.214 Y13.931 E68.4185
G1 F793.4 X149.937 Y13.931 E69.36038
G1 F794.7 X168.66 Y13.93 E70.3007
G1 F796 X187.383 Y13.93 E71.23947
G1 X206.106 Y13.93 E72.17823
G1 F797.3 X224.829 Y13.929 E73.11544
G1 F798.7 X243.552 Y13.929 E74.05109
G1 X262.275 Y13.929 E74.98674
G1 F800 X280.998 Y13.929 E75.92084
G0 F6000 X281.703 Y14.628
G1 F941.2 X281.793 Y14.047 E75.94577
G1 F1142.9 X281.793 Y13.837 E75.9531
G1 X281.583 Y13.837 E75.96044
G1 F941.2 X281.003 Y13.928 E75.98533
G1 X281.435 Y14.195 E76.00687
G1 X281.703 Y14.628 E76.02846
G1 F800 X281.703 Y24.351 E76.51355
G0 F6000 X281.203 Y24.844
;TYPE:WALL-OUTER
G1 F1200 X282.203 Y24.857 E76.54681
G1 X282.203 Y13.427 E76.92697
G1 X17.798 Y13.429 E85.72112
G1 X17.797 Y24.857 E86.10122
G1 X18.797 Y24.844 E86.13448
G1 X18.797 Y14.627 E86.4743
G1 X18.855 Y14.485 E86.4794
G1 X18.962 Y14.429 E86.48342
G1 X281.003 Y14.428 E95.19894
G1 X281.145 Y14.486 E95.20404
G1 X281.203 Y14.628 E95.20914
G1 X281.203 Y24.844 E95.54892
M104 S200
G1 F2700 E90.54892
;MESH:NONMESH
G0 F300 X281.203 Y24.844 Z0.4
G0 F6000 X281.474 Y24.577
G0 X281.431 Y14.2
G0 X18.583 Y14.213
G0 X16.932 Y14.213
G0 X9.394 Y7.189
;TIME_ELAPSED:153.076564
;LAYER:1
M106 S85
;TYPE:SKIRT
G1 F2700 E95.54892
G1 F1200 X9.961 Y6.486 E95.57896
G1 X10.588 Y5.836 E95.609
G1 X11.27 Y5.244 E95.63904
G1 X12.002 Y4.715 E95.66908
G1 X12.778 Y4.253 E95.69912
G1 X13.591 Y3.861 E95.72913
G1 X14.436 Y3.542 E95.75918
G1 X15.306 Y3.3 E95.78921
G1 X16.194 Y3.135 E95.81925
G1 X17.32 Y3.041 E95.85683
G1 X17.927 Y3.028 E95.87703
G1 X281.696 Y3.027 E104.65002
G1 X282.54 Y3.038 E104.67809
G1 X283.442 Y3.091 E104.70814
G1 X284.335 Y3.223 E104.73817
G1 X285.213 Y3.434 E104.7682
G1 X286.069 Y3.722 E104.79824
G1 X286.896 Y4.084 E104.82827
G1 X287.688 Y4.519 E104.85832
G1 X288.439 Y5.021 E104.88837
G1 X289.142 Y5.588 E104.91841
G1 X289.792 Y6.215 E104.94844
G1 X290.384 Y6.897 E104.97848
G1 X290.914 Y7.628 E105.00851
G1 X291.376 Y8.404 E105.03855
G1 X291.769 Y9.217 E105.06858
G1 X292.087 Y10.062 E105.09861
G1 X292.33 Y10.932 E105.12866
G1 X292.495 Y11.82 E105.1587
G1 X292.59 Y12.95 E105.19641
G1 X292.603 Y13.557 E105.21661
G1 X292.602 Y24.464 E105.57938
G1 X292.592 Y25.191 E105.60356
G1 X292.54 Y26.093 E105.63361
G1 X292.408 Y26.986 E105.66363
G1 X292.197 Y27.865 E105.6937
G1 X291.91 Y28.721 E105.72373
G1 X291.548 Y29.548 E105.75375
G1 X291.114 Y30.34 E105.78379
G1 X290.612 Y31.091 E105.81384
G1 X290.046 Y31.794 E105.84385
G1 X289.419 Y32.445 E105.87392
G1 X288.738 Y33.037 E105.90393
G1 X288.007 Y33.567 E105.93396
G1 X287.231 Y34.03 E105.96401
G1 X286.418 Y34.423 E105.99405
G1 X285.573 Y34.743 E106.0241
G1 X284.704 Y34.986 E106.05411
G1 X283.816 Y35.151 E106.08415
G1 X282.917 Y35.238 E106.11419
G1 X282.393 Y35.251 E106.13163
G1 X281.419 Y35.247 E106.16402
G1 X280.713 Y35.227 E106.18751
G1 X279.812 Y35.161 E106.21756
G1 X278.921 Y35.016 E106.24759
G1 X278.046 Y34.793 E106.27762
G1 X277.194 Y34.494 E106.30765
G1 X276.552 Y34.209 E106.33101
G1 X275.809 Y33.849 E106.35847
G1 X273.433 Y32.739 E106.4457
G1 X271.079 Y31.719 E106.53103
G1 X268.719 Y30.777 E106.61554
G1 X266.357 Y29.908 E106.69925
G1 X263.957 Y29.103 E106.78345
G1 X261.521 Y28.361 E106.86814
G1 X259.065 Y27.689 E106.95283
G1 X256.615 Y27.092 E107.0367
