;FLAVOR:Marlin
;TIME:343
;Filament used: 0.217065m
;Layer height: 0.2
;MINX:38.455
;MINY:44.027
;MINZ:0.2
;MAXX:261.545
;MAXY:255.973
;MAXZ:0.2
;Generated with Cura_SteamEngine 5.4.0
M82 ;absolute extrusion mode
M104 S160  ; Start warming extruder to 160
M190 S50 ; Wait for Heat Bed temperature
G28        ; Home all axes
G29 A      ; Activate the UBL System.
G29 L1     ; Load UBL
G29 J2     ; 4-point level
G29 F10.0  ; Fade to 10mm
G92 E0     ; Reset Extruder

G1 Z2.0 F3000                   ; Move Z Axis up little to prevent scratching of Heat Bed
G1 X0.1 Y20 Z0.3 F5000.0        ; Move to start position
M109 S200 ; Wait for extruder temperature
G1 X0.1 Y200.0 Z0.3 F1500.0 E15 ; Draw the first line
G1 X0.4 Y200.0 Z0.3 F5000.0     ; Move to side a little
G1 X0.4 Y20 Z0.3 F1500.0 E30    ; Draw the second line
G92 E0                          ; Reset Extruder
G1 Z2.0 F3000                   ; Move Z Axis up little to prevent scratching of Heat Bed
G1 X5 Y20 Z0.3 F5000.0          ; Move over to prevent blob squish
G92 E0
G92 E0
G1 F2700 E-5
;LAYER_COUNT:1
;LAYER:0
M107
G0 F6000 X41.908 Y47.32 Z0.2
;TYPE:SKIRT
G1 F2700 E0
G1 F1200 X42.645 Y46.683 E0.0324
G1 X43.434 Y46.115 E0.06473
G1 X44.271 Y45.617 E0.09713
G1 X45.149 Y45.196 E0.12951
G1 X46.062 Y44.854 E0.16194
G1 X47 Y44.594 E0.19432
G1 X47.957 Y44.418 E0.22668
G1 X48.915 Y44.327 E0.25869
G1 X49.529 Y44.313 E0.27911
G1 X50.078 Y44.318 E0.29737
G1 X51.061 Y44.37 E0.33011
G1 X52.311 Y44.493 E0.37189
G1 X54.902 Y44.716 E0.45839
G1 X57.401 Y44.855 E0.54163
G1 X59.945 Y44.927 E0.62628
G1 X62.434 Y44.927 E0.70906
G1 X64.967 Y44.855 E0.79335
G1 X67.483 Y44.712 E0.87716
G1 X70.007 Y44.499 E0.96141
G1 X72.531 Y44.21 E1.04591
G1 X73.245 Y44.12 E1.06984
G1 X74.291 Y44.04 E1.10473
G1 X74.898 Y44.027 E1.12493
G1 X99.629 Y44.027 E1.94748
G1 X100.506 Y44.04 E1.97666
G1 X101.387 Y44.089 E2.006
G1 X102.356 Y44.186 E2.03839
G1 X103.369 Y44.3 E2.0723
G1 X105.913 Y44.519 E2.15723
G1 X108.363 Y44.658 E2.23884
G1 X110.931 Y44.731 E2.32429
G1 X113.421 Y44.733 E2.40711
G1 X115.952 Y44.662 E2.49132
G1 X118.433 Y44.524 E2.57397
G1 X121.034 Y44.301 E2.6608
G1 X122.919 Y44.098 E2.72385
G1 X123.771 Y44.04 E2.75226
G1 X124.395 Y44.027 E2.77302
G1 X149.924 Y44.028 E3.62211
G1 X150.653 Y44.04 E3.64636
G1 X151.493 Y44.086 E3.67434
G1 X152.061 Y44.142 E3.69333
G1 X153.925 Y44.353 E3.75572
G1 X156.486 Y44.574 E3.84122
G1 X158.937 Y44.713 E3.92287
G1 X161.497 Y44.785 E4.00805
G1 X163.999 Y44.786 E4.09126
G1 X166.524 Y44.716 E4.17528
G1 X169.007 Y44.576 E4.25799
G1 X171.574 Y44.358 E4.34368
G1 X173.946 Y44.099 E4.42304
G1 X174.81 Y44.04 E4.45185
G1 X175.434 Y44.027 E4.47261
G1 X200.517 Y44.028 E5.30687
G1 X201.246 Y44.04 E5.33112
G1 X202.121 Y44.089 E5.36027
G1 X203.846 Y44.268 E5.41795
G1 X206.434 Y44.492 E5.50435
G1 X208.869 Y44.629 E5.58546
G1 X211.446 Y44.704 E5.67121
G1 X213.935 Y44.706 E5.754
G1 X216.466 Y44.636 E5.83821
G1 X218.95 Y44.496 E5.92096
G1 X221.532 Y44.278 E6.00714
G1 X223.229 Y44.097 E6.06391
G1 X224.067 Y44.04 E6.09184
G1 X224.69 Y44.027 E6.11257
G1 X249.981 Y44.028 E6.95375
G1 X250.714 Y44.039 E6.97813
G1 X251.686 Y44.096 E7.01052
G1 X252.649 Y44.242 E7.04291
G1 X253.595 Y44.471 E7.07528
G1 X254.519 Y44.783 E7.10772
G1 X255.409 Y45.175 E7.14007
G1 X256.232 Y45.626 E7.17128
G1 X257.071 Y46.187 E7.20485
G1 X257.775 Y46.753 E7.23489
G1 X258.528 Y47.478 E7.26966
G1 X259.165 Y48.214 E7.30204
G1 X259.695 Y48.945 E7.33207
G1 X260.231 Y49.842 E7.36682
G1 X260.653 Y50.72 E7.39922
G1 X260.995 Y51.632 E7.43162
G1 X261.255 Y52.57 E7.46399
G1 X261.433 Y53.537 E7.4967
G1 X261.53 Y54.68 E7.53485
G1 X261.545 Y55.355 E7.5573
G1 X261.544 Y84.228 E8.51762
G1 X261.532 Y84.966 E8.54217
G1 X261.473 Y85.938 E8.57456
G1 X261.327 Y86.901 E8.60696
G1 X261.096 Y87.848 E8.63938
G1 X260.808 Y88.704 E8.66942
G1 X260.39 Y89.66 E8.70412
G1 X259.92 Y90.511 E8.73645
G1 X259.397 Y91.291 E8.76769
G1 X258.808 Y92.023 E8.79894
G1 X258.133 Y92.791 E8.83295
G1 X256.364 Y94.86 E8.92349
G1 X254.826 Y96.766 E9.00494
G1 X253.297 Y98.774 E9.08889
G1 X251.823 Y100.828 E9.17298
G1 X250.408 Y102.923 E9.25706
G1 X249.073 Y105.026 E9.33991
G1 X247.779 Y107.197 E9.42397
G1 X246.56 Y109.379 E9.5071
G1 X245.373 Y111.654 E9.59245
G1 X244.279 Y113.903 E9.67563
G1 X243.253 Y116.173 E9.75849
G1 X242.253 Y118.567 E9.84478
G1 X241.373 Y120.852 E9.92622
G1 X240.535 Y123.227 E10.00998
G1 X239.755 Y125.65 E10.09465
G1 X239.061 Y128.037 E10.17733
G1 X238.418 Y130.505 E10.26215
G1 X237.85 Y132.979 E10.34658
G1 X237.36 Y135.413 E10.42916
G1 X236.938 Y137.878 E10.51234
G1 X236.584 Y140.368 E10.59599
G1 X236.298 Y142.888 E10.68034
G1 X236.084 Y145.376 E10.7634
G1 X235.943 Y147.893 E10.84724
G1 X235.869 Y150.458 E10.93259
G1 X235.86 Y151.762 E10.97596
G1 X235.859 Y244.403 E14.05722
G1 X235.846 Y245.166 E14.0826
G1 X235.786 Y246.139 E14.11502
G1 X235.639 Y247.102 E14.14742
G1 X235.407 Y248.047 E14.17979
G1 X235.093 Y248.969 E14.21218
G1 X234.698 Y249.86 E14.2446
G1 X234.227 Y250.711 E14.27695
G1 X233.682 Y251.517 E14.30931
G1 X233.068 Y252.275 E14.34175
G1 X232.388 Y252.973 E14.37416
G1 X231.651 Y253.607 E14.4065
G1 X230.861 Y254.176 E14.43888
G1 X230.053 Y254.655 E14.47012
G1 X229.142 Y255.091 E14.50371
G1 X228.23 Y255.431 E14.53609
G1 X227.326 Y255.681 E14.56728
G1 X226.324 Y255.864 E14.60116
G1 X225.179 Y255.959 E14.63937
G1 X224.53 Y255.973 E14.66096
G1 X201.115 Y255.972 E15.43975
G1 X200.38 Y255.96 E15.4642
G1 X199.353 Y255.896 E15.49842
G1 X196.915 Y255.624 E15.58002
G1 X194.393 Y255.406 E15.66421
G1 X191.933 Y255.267 E15.74616
G1 X189.369 Y255.194 E15.83147
G1 X186.879 Y255.194 E15.91429
G1 X184.344 Y255.265 E15.99864
G1 X181.863 Y255.405 E16.08129
G1 X179.285 Y255.624 E16.16734
G1 X176.771 Y255.9 E16.25146
G1 X175.898 Y255.96 E16.28057
G1 X175.274 Y255.973 E16.30133
G1 X150.523 Y255.972 E17.12455
G1 X149.786 Y255.96 E17.14906
G1 X148.744 Y255.892 E17.18379
G1 X146.135 Y255.598 E17.27112
G1 X143.594 Y255.379 E17.35595
G1 X141.136 Y255.241 E17.43783
G1 X138.57 Y255.167 E17.52321
G1 X136.082 Y255.167 E17.60596
G1 X133.548 Y255.238 E17.69027
G1 X131.064 Y255.378 E17.77302
G1 X128.489 Y255.597 E17.85898
G1 X125.732 Y255.9 E17.95123
G1 X124.859 Y255.96 E17.98033
G1 X124.235 Y255.973 E18.00109
G1 X100.374 Y255.972 E18.79471
G1 X99.639 Y255.96 E18.81916
G1 X98.622 Y255.897 E18.85305
G1 X96.279 Y255.638 E18.93145
G1 X93.728 Y255.419 E19.01661
G1 X91.232 Y255.279 E19.09976
G1 X88.706 Y255.208 E19.18381
G1 X86.216 Y255.208 E19.26663
G1 X83.677 Y255.281 E19.35111
G1 X81.163 Y255.424 E19.43486
G1 X78.656 Y255.638 E19.51855
G1 X76.245 Y255.901 E19.59921
G1 X75.38 Y255.96 E19.62805
G1 X74.756 Y255.973 E19.64881
G1 X50.019 Y255.972 E20.47156
G1 X49.286 Y255.961 E20.49595
G1 X48.314 Y255.904 E20.52833
G1 X47.351 Y255.758 E20.56073
G1 X46.405 Y255.529 E20.5931
G1 X45.481 Y255.217 E20.62554
G1 X44.591 Y254.825 E20.65788
G1 X43.768 Y254.374 E20.6891
G1 X42.929 Y253.813 E20.72266
G1 X42.225 Y253.247 E20.75271
G1 X41.472 Y252.522 E20.78748
G1 X40.835 Y251.786 E20.81985
G1 X40.305 Y251.055 E20.84988
G1 X39.769 Y250.158 E20.88464
G1 X39.347 Y249.28 E20.91704
G1 X39.005 Y248.368 E20.94943
G1 X38.745 Y247.43 E20.98181
G1 X38.567 Y246.461 E21.01458
G1 X38.469 Y245.282 E21.05392
G1 X38.455 Y244.631 E21.07558
G1 X38.456 Y55.858 E27.3542
G1 X38.467 Y55.134 E27.37828
G1 X38.525 Y54.161 E27.4107
G1 X38.67 Y53.198 E27.44309
G1 X38.89 Y52.285 E27.47433
G1 X39.211 Y51.329 E27.50787
G1 X39.604 Y50.438 E27.54026
G1 X40.055 Y49.616 E27.57144
G1 X40.616 Y48.777 E27.60501
G1 X41.182 Y48.073 E27.63505
G1 X41.908 Y47.32 E27.66984
G0 F6000 X42.17 Y47.622
G1 F1200 X42.879 Y47.007 E27.70106
G1 X43.639 Y46.458 E27.73224
G1 X44.445 Y45.977 E27.76346
G1 X45.29 Y45.57 E27.79466
G1 X46.169 Y45.239 E27.8259
G1 X47.073 Y44.987 E27.85711
G1 X47.995 Y44.816 E27.8883
G1 X48.924 Y44.727 E27.91934
G1 X49.526 Y44.713 E27.93937
G1 X50.057 Y44.717 E27.95703
G1 X51.022 Y44.768 E27.98917
G1 X52.277 Y44.892 E28.03111
G1 X54.868 Y45.114 E28.11761
G1 X57.39 Y45.255 E28.20162
G1 X59.934 Y45.327 E28.28627
G1 X62.445 Y45.327 E28.36978
G1 X64.978 Y45.255 E28.45407
G1 X67.517 Y45.111 E28.53865
G1 X70.041 Y44.897 E28.6229
G1 X72.581 Y44.607 E28.70793
G1 X73.276 Y44.519 E28.73123
G1 X74.3 Y44.44 E28.76539
G1 X74.907 Y44.427 E28.78558
G1 X99.623 Y44.427 E29.60764
G1 X100.484 Y44.439 E29.63628
G1 X101.347 Y44.487 E29.66503
G1 X102.311 Y44.583 E29.69725
G1 X103.335 Y44.699 E29.73152
G1 X105.879 Y44.917 E29.81645
G1 X108.352 Y45.058 E29.89883
G1 X110.92 Y45.131 E29.98428
G1 X113.432 Y45.133 E30.06783
G1 X115.963 Y45.062 E30.15205
G1 X118.467 Y44.922 E30.23546
G1 X121.068 Y44.7 E30.32228
G1 X122.946 Y44.497 E30.38511
G1 X123.779 Y44.44 E30.41288
G1 X124.395 Y44.427 E30.43337
G1 X149.918 Y44.428 E31.28227
G1 X150.631 Y44.439 E31.30599
G1 X151.454 Y44.484 E31.3334
G1 X152.016 Y44.539 E31.35218
G1 X153.891 Y44.752 E31.41495
G1 X156.452 Y44.972 E31.50044
G1 X158.926 Y45.113 E31.58286
G1 X161.486 Y45.185 E31.66804
G1 X164.01 Y45.186 E31.75199
G1 X166.535 Y45.116 E31.836
G1 X169.041 Y44.975 E31.91948
G1 X171.612 Y44.757 E32.0053
G1 X173.973 Y44.498 E32.0843
G1 X174.818 Y44.44 E32.11247
G1 X175.434 Y44.427 E32.13296
G1 X200.511 Y44.428 E32.96703
G1 X201.224 Y44.439 E32.99075
G1 X202.082 Y44.487 E33.01933
G1 X203.065 Y44.583 E33.05218
G1 X203.812 Y44.667 E33.07718
G1 X206.4 Y44.89 E33.16358
G1 X208.857 Y45.029 E33.24543
G1 X211.434 Y45.104 E33.33117
G1 X213.946 Y45.106 E33.41472
G1 X216.477 Y45.036 E33.49894
G1 X218.984 Y44.895 E33.58245
G1 X221.566 Y44.677 E33.66864
G1 X223.256 Y44.496 E33.72517
G1 X224.075 Y44.44 E33.75247
G1 X224.69 Y44.427 E33.77293
G1 X249.975 Y44.428 E34.61391
G1 X250.691 Y44.438 E34.63773
G1 X251.627 Y44.492 E34.66891
G1 X252.556 Y44.631 E34.70016
G1 X253.468 Y44.85 E34.73135
G1 X254.358 Y45.149 E34.76258
G1 X255.217 Y45.526 E34.79378
G1 X256.04 Y45.977 E34.82499
G1 X256.82 Y46.499 E34.85621
G1 X257.524 Y47.065 E34.88625
G1 X258.226 Y47.74 E34.91864
G1 X258.841 Y48.449 E34.94986
G1 X259.371 Y49.18 E34.97989
G1 X259.871 Y50.016 E35.01229
G1 X260.279 Y50.861 E35.0435
G1 X260.61 Y51.739 E35.07471
G1 X260.862 Y52.643 E35.10592
G1 X261.034 Y53.571 E35.13731
G1 X261.131 Y54.714 E35.17547
G1 X261.145 Y55.355 E35.19679
G1 X261.144 Y84.222 E36.15691
G1 X261.133 Y84.942 E36.18086
G1 X261.077 Y85.879 E36.21208
G1 X260.938 Y86.807 E36.24329
G1 X260.717 Y87.72 E36.27454
G1 X260.429 Y88.576 E36.30457
G1 X260.039 Y89.467 E36.33692
G1 X259.587 Y90.289 E36.36812
G1 X259.085 Y91.04 E36.39817
G1 X258.496 Y91.772 E36.42942
G1 X257.829 Y92.531 E36.46303
G1 X256.06 Y94.6 E36.55357
G1 X254.515 Y96.515 E36.6354
G1 X252.972 Y98.541 E36.72011
G1 X251.498 Y100.595 E36.80419
G1 X250.07 Y102.709 E36.88904
G1 X248.729 Y104.821 E36.97225
G1 X247.435 Y106.992 E37.05631
G1 X246.205 Y109.194 E37.1402
G1 X245.018 Y111.469 E37.22555
G1 X243.919 Y113.728 E37.3091
G1 X242.889 Y116.008 E37.39232
G1 X241.884 Y118.413 E37.47901
G1 X241 Y120.708 E37.56081
G1 X240.154 Y123.104 E37.64532
G1 X239.374 Y125.527 E37.72998
G1 X238.677 Y127.925 E37.81304
G1 X238.031 Y130.404 E37.89825
G1 X237.46 Y132.889 E37.98305
G1 X236.968 Y135.334 E38.06601
G1 X236.544 Y137.811 E38.14959
G1 X236.188 Y140.312 E38.23361
G1 X235.899 Y142.854 E38.3187
G1 X235.686 Y145.342 E38.40176
G1 X235.543 Y147.881 E38.48634
G1 X235.469 Y150.446 E38.57169
G1 X235.46 Y151.759 E38.61536
G1 X235.459 Y244.397 E41.69651
G1 X235.447 Y245.142 E41.72129
G1 X235.39 Y246.079 E41.75251
G1 X235.25 Y247.007 E41.78373
G1 X235.028 Y247.919 E41.81495
G1 X234.727 Y248.808 E41.84616
G1 X234.348 Y249.667 E41.87739
G1 X233.895 Y250.488 E41.90858
G1 X233.371 Y251.266 E41.93978
G1 X232.781 Y251.996 E41.971
G1 X232.127 Y252.67 E42.00223
G1 X231.417 Y253.283 E42.03343
G1 X230.656 Y253.832 E42.06464
G1 X229.88 Y254.294 E42.09468
G1 X229.002 Y254.716 E42.12708
G1 X228.123 Y255.045 E42.1583
G1 X227.219 Y255.295 E42.18949
G1 X226.291 Y255.465 E42.22087
G1 X225.146 Y255.56 E42.25908
G1 X224.53 Y255.573 E42.27958
G1 X201.121 Y255.572 E43.05816
G1 X200.405 Y255.561 E43.08198
G1 X199.397 Y255.498 E43.11557
G1 X196.954 Y255.225 E43.19733
G1 X194.427 Y255.008 E43.28169
G1 X191.944 Y254.867 E43.36441
G1 X189.38 Y254.794 E43.44972
G1 X186.868 Y254.794 E43.53327
G1 X184.333 Y254.865 E43.61762
G1 X181.829 Y255.006 E43.70103
G1 X179.247 Y255.225 E43.78722
G1 X176.743 Y255.501 E43.87101
G1 X175.89 Y255.56 E43.89945
G1 X175.274 Y255.573 E43.91994
G1 X150.529 Y255.572 E44.74296
G1 X149.812 Y255.561 E44.76681
G1 X148.789 Y255.495 E44.80091
G1 X146.169 Y255.199 E44.8886
G1 X143.628 Y254.981 E44.97343
G1 X141.148 Y254.841 E45.05604
G1 X138.582 Y254.767 E45.14143
G1 X136.071 Y254.767 E45.22494
G1 X133.537 Y254.838 E45.30926
G1 X131.03 Y254.979 E45.39277
G1 X128.451 Y255.198 E45.47886
G1 X125.704 Y255.501 E45.57078
G1 X124.851 Y255.56 E45.59922
G1 X124.235 Y255.573 E45.61971
G1 X100.38 Y255.572 E46.41313
G1 X99.664 Y255.561 E46.43695
G1 X98.666 Y255.499 E46.4702
G1 X96.317 Y255.239 E46.54881
G1 X93.762 Y255.021 E46.6341
G1 X91.243 Y254.879 E46.71801
G1 X88.717 Y254.808 E46.80206
G1 X86.205 Y254.808 E46.88561
G1 X83.666 Y254.881 E46.97009
G1 X81.129 Y255.025 E47.05461
G1 X78.618 Y255.239 E47.13843
G1 X76.218 Y255.502 E47.21873
G1 X75.372 Y255.56 E47.24694
G1 X74.756 Y255.573 E47.26743
G1 X50.025 Y255.572 E48.08998
G1 X49.309 Y255.562 E48.1138
G1 X48.373 Y255.508 E48.14498
G1 X47.444 Y255.369 E48.17623
G1 X46.532 Y255.15 E48.20742
G1 X45.642 Y254.851 E48.23865
G1 X44.783 Y254.474 E48.26985
G1 X43.96 Y254.023 E48.30106
G1 X43.18 Y253.501 E48.33228
G1 X42.476 Y252.935 E48.36232
G1 X41.774 Y252.26 E48.39472
G1 X41.159 Y251.551 E48.42593
G1 X40.629 Y250.82 E48.45596
G1 X40.129 Y249.984 E48.48836
G1 X39.721 Y249.139 E48.51957
G1 X39.39 Y248.261 E48.55078
G1 X39.138 Y247.357 E48.58199
G1 X38.966 Y246.428 E48.61342
G1 X38.868 Y245.249 E48.65277
G1 X38.855 Y244.631 E48.67333
G1 X38.856 Y55.864 E54.95174
G1 X38.866 Y55.157 E54.97526
G1 X38.921 Y54.22 E55.00648
G1 X39.059 Y53.292 E55.03768
G1 X39.279 Y52.379 E55.06892
G1 X39.577 Y51.49 E55.1001
G1 X39.955 Y50.63 E55.13135
G1 X40.406 Y49.808 E55.16253
G1 X40.928 Y49.028 E55.19375
G1 X41.494 Y48.324 E55.22379
G1 X42.17 Y47.622 E55.25621
G0 F6000 X42.432 Y47.924
G1 F1200 X43.114 Y47.331 E55.28627
G1 X43.845 Y46.801 E55.3163
G1 X44.619 Y46.337 E55.34631
G1 X45.432 Y45.944 E55.37635
G1 X46.277 Y45.624 E55.4064
G1 X47.147 Y45.38 E55.43645
G1 X48.034 Y45.214 E55.46647
G1 X48.933 Y45.127 E55.49651
G1 X49.524 Y45.113 E55.51617
G1 X50.036 Y45.116 E55.5332
G1 X50.983 Y45.166 E55.56474
G1 X52.243 Y45.291 E55.60685
G1 X54.834 Y45.512 E55.69334
G1 X57.379 Y45.655 E55.77812
G1 X59.923 Y45.727 E55.86277
G1 X62.456 Y45.727 E55.94702
G1 X64.989 Y45.655 E56.0313
G1 X67.551 Y45.51 E56.11665
G1 X70.075 Y45.295 E56.2009
G1 X72.631 Y45.004 E56.28647
G1 X73.307 Y44.918 E56.30913
G1 X74.309 Y44.84 E56.34256
G1 X74.916 Y44.827 E56.36275
G1 X99.618 Y44.827 E57.18434
G1 X100.462 Y44.838 E57.21242
G1 X101.308 Y44.885 E57.2406
G1 X102.266 Y44.98 E57.27262
G1 X103.301 Y45.098 E57.30727
G1 X105.845 Y45.315 E57.39219
G1 X108.341 Y45.458 E57.47534
G1 X110.909 Y45.531 E57.56079
G1 X113.443 Y45.533 E57.64507
G1 X115.974 Y45.462 E57.72928
G1 X118.501 Y45.32 E57.81346
G1 X121.102 Y45.099 E57.90028
G1 X122.973 Y44.896 E57.96288
G1 X123.788 Y44.84 E57.99005
G1 X124.395 Y44.827 E58.01024
G1 X149.912 Y44.828 E58.85894
G1 X150.609 Y44.838 E58.88213
G1 X151.415 Y44.882 E58.90897
G1 X151.971 Y44.936 E58.92755
G1 X153.857 Y45.151 E58.99069
G1 X156.418 Y45.37 E59.07618
G1 X158.915 Y45.513 E59.15937
G1 X161.475 Y45.585 E59.24455
G1 X164.021 Y45.586 E59.32923
G1 X166.546 Y45.516 E59.41324
G1 X169.075 Y45.374 E59.49749
G1 X171.65 Y45.156 E59.58344
G1 X174.001 Y44.897 E59.66211
G1 X174.827 Y44.84 E59.68964
G1 X175.434 Y44.827 E59.70984
G1 X200.505 Y44.828 E60.5437
G1 X201.202 Y44.838 E60.56689
G1 X202.043 Y44.885 E60.5949
G1 X203.02 Y44.98 E60.62755
G1 X203.778 Y45.066 E60.65292
G1 X206.366 Y45.288 E60.73932
G1 X208.845 Y45.429 E60.8219
G1 X211.422 Y45.504 E60.90765
G1 X213.957 Y45.506 E60.99197
G1 X216.488 Y45.436 E61.07618
G1 X219.018 Y45.294 E61.16046
G1 X221.6 Y45.076 E61.24664
G1 X223.283 Y44.895 E61.30294
