;FLAVOR:Marlin
;TIME:8076
;Filament used: 3.67414m
;Layer height: 0.12
;MINX:25.2
;MINY:138.72
;MINZ:0.28
;MAXX:274.8
;MAXY:161.883
;MAXZ:16.44
;Generated with Cura_SteamEngine 5.4.0
M82 ;absolute extrusion mode
M104 S210  ; Start warming extruder to 160
M190 S65 ; Wait for Heat Bed temperature
G28        ; Home all axes
G29 A      ; Activate the UBL System.
G29 L1     ; Load UBL
G29 J2     ; 4-point level
G29 F10.0  ; Fade to 10mm
G92 E0     ; Reset Extruder

G1 Z2.0 F3000                   ; Move Z Axis up little to prevent scratching of Heat Bed
G1 X0.1 Y20 Z0.3 F5000.0        ; Move to start position
M109 S210.0 ; Wait for extruder temperature
G1 X0.1 Y200.0 Z0.3 F1500.0 E15 ; Draw the first line
G1 X0.4 Y200.0 Z0.3 F5000.0     ; Move to side a little
G1 X0.4 Y20 Z0.3 F1500.0 E30    ; Draw the second line
G92 E0                          ; Reset Extruder
G1 Z2.0 F3000                   ; Move Z Axis up little to prevent scratching of Heat Bed
G1 X5 Y20 Z0.3 F5000.0          ; Move over to prevent blob squish
G92 E0
G92 E0
G1 F6000 E-6
;LAYER_COUNT:134
;LAYER:0
M107
G1 F300 Z0.48
;MESH:Led_Strip_Holder_2020_25cm.stl
G0 F6000 X190.18 Y149.52 Z0.48
;TYPE:WALL-INNER
G1 F300 Z0.28
G1 F6000 E0
G1 F900 X190.276 Y149.637 E0.00705
G1 X204.724 Y149.637 E0.67981
G1 X204.82 Y149.52 E0.68685
G1 X274 Y149.52 E3.90816
G1 X274 Y139.52 E4.37381
G1 X26 Y139.52 E15.92173
G1 X26 Y149.52 E16.38737
G1 X95.18 Y149.52 E19.60868
G1 X95.276 Y149.637 E19.61572
G1 X109.724 Y149.637 E20.28848
G1 X109.82 Y149.52 E20.29553
G1 X190.18 Y149.52 E24.03743
G0 F6000 X190.109 Y149.92
G1 F900 X190.204 Y150.037 E24.04445
G1 X204.796 Y150.037 E24.72391
G1 X204.891 Y149.92 E24.73093
G1 X274.4 Y149.92 E27.96756
G1 X274.4 Y139.12 E28.47045
G1 X25.6 Y139.12 E40.05562
G1 X25.6 Y149.92 E40.55852
G1 X95.109 Y149.92 E43.79515
G1 X95.204 Y150.037 E43.80216
G1 X109.796 Y150.037 E44.48163
G1 X109.891 Y149.92 E44.48865
G1 X190.109 Y149.92 E48.22393
G0 F6000 X190.04 Y150.323
;TYPE:WALL-OUTER
G1 F900 X190.132 Y150.437 E48.23075
G1 X204.868 Y150.437 E48.91692
G1 X204.96 Y150.323 E48.92375
G1 X274.8 Y150.32 E52.17579
G1 X274.8 Y138.72 E52.71593
G1 X25.2 Y138.72 E64.33836
G1 X25.2 Y150.32 E64.8785
G1 X95.04 Y150.323 E68.13054
G1 X95.132 Y150.437 E68.13736
G1 X109.868 Y150.437 E68.82353
G1 X109.96 Y150.323 E68.83036
G1 X190.04 Y150.323 E72.55922
G0 F6000 X190.242 Y149.164
;TYPE:SKIN
G1 F900 X109.758 Y149.164 E76.30689
G1 X109.61 Y149.277 E76.31556
G1 X95.39 Y149.277 E76.9777
G1 X95.242 Y149.164 E76.98637
G1 X26.36 Y149.16 E80.19381
G1 X26.36 Y139.88 E80.62592
G1 X273.64 Y139.88 E92.14031
G1 X273.64 Y149.16 E92.57243
G1 X204.758 Y149.164 E95.77986
G1 X204.61 Y149.277 E95.78853
G1 X190.39 Y149.277 E96.45068
G1 X190.242 Y149.164 E96.45935
G1 F6000 E90.45935
G1 F300 Z0.48
G0 F6000 X273.438 Y140.502 Z0.48
G1 F300 Z0.28
G1 F6000 E96.45935
G1 F900 X273.016 Y140.079 E96.48717
G0 F6000 X272.45 Y140.079
G1 F900 X273.438 Y141.068 E96.55227
G0 F6000 X273.438 Y141.634
G1 F900 X271.884 Y140.079 E96.65463
G0 F6000 X271.318 Y140.079
G1 F900 X273.438 Y142.199 E96.79424
G0 F6000 X273.438 Y142.765
G1 F900 X270.753 Y140.079 E96.97108
G0 F6000 X270.187 Y140.079
G1 F900 X273.438 Y143.331 E97.1852
G0 F6000 X273.438 Y143.896
G1 F900 X269.621 Y140.079 E97.43655
G0 F6000 X269.056 Y140.079
G1 F900 X273.438 Y144.462 E97.72515
G0 F6000 X273.438 Y145.028
G1 F900 X268.49 Y140.079 E98.05102
G0 F6000 X267.924 Y140.079
G1 F900 X273.438 Y145.593 E98.41412
G0 F6000 X273.438 Y146.159
G1 F900 X267.359 Y140.079 E98.81447
G0 F6000 X266.793 Y140.079
G1 F900 X273.438 Y146.725 E99.25209
G0 F6000 X273.438 Y147.291
G1 F900 X266.227 Y140.079 E99.72698
G0 F6000 X265.662 Y140.079
G1 F900 X273.438 Y147.856 E100.23907
G0 F6000 X273.438 Y148.422
G1 F900 X265.096 Y140.079 E100.78844
G0 F6000 X264.53 Y140.079
G1 F900 X273.41 Y148.959 E101.3732
G0 F6000 X272.844 Y148.959
G1 F900 X263.965 Y140.079 E101.95793
G0 F6000 X263.399 Y140.079
G1 F900 X272.279 Y148.959 E102.5427
G0 F6000 X271.713 Y148.959
G1 F900 X262.833 Y140.079 E103.12746
G0 F6000 X262.268 Y140.079
G1 F900 X271.147 Y148.959 E103.71219
G0 F6000 X270.582 Y148.959
G1 F900 X261.702 Y140.079 E104.29695
G0 F6000 X261.136 Y140.079
G1 F900 X270.016 Y148.959 E104.88172
G0 F6000 X269.45 Y148.959
G1 F900 X260.57 Y140.079 E105.46648
G0 F6000 X260.005 Y140.079
G1 F900 X268.885 Y148.959 E106.05124
G0 F6000 X268.319 Y148.959
G1 F900 X259.439 Y140.079 E106.63601
G0 F6000 X258.873 Y140.079
G1 F900 X267.753 Y148.959 E107.22077
G0 F6000 X267.188 Y148.959
G1 F900 X258.308 Y140.079 E107.80553
G0 F6000 X257.742 Y140.079
G1 F900 X266.622 Y148.959 E108.39029
G0 F6000 X266.056 Y148.959
G1 F900 X257.176 Y140.079 E108.97506
G0 F6000 X256.611 Y140.079
G1 F900 X265.491 Y148.959 E109.55982
G0 F6000 X264.925 Y148.959
G1 F900 X256.045 Y140.079 E110.14458
G0 F6000 X255.479 Y140.079
G1 F900 X264.359 Y148.959 E110.72935
G0 F6000 X263.793 Y148.959
G1 F900 X254.914 Y140.079 E111.31408
G0 F6000 X254.348 Y140.079
G1 F900 X263.228 Y148.959 E111.89884
G0 F6000 X262.662 Y148.959
G1 F900 X253.782 Y140.079 E112.4836
G0 F6000 X253.217 Y140.079
G1 F900 X262.096 Y148.959 E113.06833
G0 F6000 X261.531 Y148.959
G1 F900 X252.651 Y140.079 E113.6531
G0 F6000 X252.085 Y140.079
G1 F900 X260.965 Y148.959 E114.23786
G0 F6000 X260.399 Y148.959
G1 F900 X251.52 Y140.079 E114.82259
G0 F6000 X250.954 Y140.079
G1 F900 X259.834 Y148.959 E115.40735
G0 F6000 X259.268 Y148.959
G1 F900 X250.388 Y140.079 E115.99212
G0 F6000 X249.822 Y140.079
G1 F900 X258.702 Y148.959 E116.57688
G0 F6000 X258.137 Y148.959
G1 F900 X249.257 Y140.079 E117.16164
G0 F6000 X248.691 Y140.079
G1 F900 X257.571 Y148.959 E117.74641
G0 F6000 X257.005 Y148.959
G1 F900 X248.125 Y140.079 E118.33117
G0 F6000 X247.56 Y140.079
G1 F900 X256.44 Y148.959 E118.91593
G0 F6000 X255.874 Y148.959
G1 F900 X246.994 Y140.079 E119.5007
G0 F6000 X246.428 Y140.079
G1 F900 X255.308 Y148.959 E120.08546
G0 F6000 X254.742 Y148.959
G1 F900 X245.863 Y140.079 E120.67019
G0 F6000 X245.297 Y140.079
G1 F900 X254.177 Y148.959 E121.25495
G0 F6000 X253.611 Y148.959
G1 F900 X244.731 Y140.079 E121.83972
G0 F6000 X244.166 Y140.079
G1 F900 X253.045 Y148.959 E122.42445
G0 F6000 X252.48 Y148.959
G1 F900 X243.6 Y140.079 E123.00921
G0 F6000 X243.034 Y140.079
G1 F900 X251.914 Y148.959 E123.59397
G0 F6000 X251.348 Y148.959
G1 F900 X242.469 Y140.079 E124.1787
G0 F6000 X241.903 Y140.079
G1 F900 X250.783 Y148.959 E124.76347
G0 F6000 X250.217 Y148.959
G1 F900 X241.337 Y140.079 E125.34823
G0 F6000 X240.771 Y140.079
G1 F900 X249.651 Y148.959 E125.93299
G0 F6000 X249.086 Y148.959
G1 F900 X240.206 Y140.079 E126.51776
G0 F6000 X239.64 Y140.079
G1 F900 X248.52 Y148.959 E127.10252
G0 F6000 X247.954 Y148.959
G1 F900 X239.074 Y140.079 E127.68728
G0 F6000 X238.509 Y140.079
G1 F900 X247.389 Y148.959 E128.27204
G0 F6000 X246.823 Y148.959
G1 F900 X237.943 Y140.079 E128.85681
G0 F6000 X237.377 Y140.079
G1 F900 X246.257 Y148.959 E129.44157
G0 F6000 X245.692 Y148.959
G1 F900 X236.812 Y140.079 E130.02633
G0 F6000 X236.246 Y140.079
G1 F900 X245.126 Y148.959 E130.6111
G0 F6000 X244.56 Y148.959
G1 F900 X235.68 Y140.079 E131.19586
G0 F6000 X235.115 Y140.079
G1 F900 X243.994 Y148.959 E131.78059
G0 F6000 X243.429 Y148.959
G1 F900 X234.549 Y140.079 E132.36535
G0 F6000 X233.983 Y140.079
G1 F900 X242.863 Y148.959 E132.95012
G0 F6000 X242.297 Y148.959
G1 F900 X233.418 Y140.079 E133.53485
G0 F6000 X232.852 Y140.079
G1 F900 X241.732 Y148.959 E134.11961
G0 F6000 X241.166 Y148.959
G1 F900 X232.286 Y140.079 E134.70437
G0 F6000 X231.721 Y140.079
G1 F900 X240.6 Y148.959 E135.2891
G0 F6000 X240.035 Y148.959
G1 F900 X231.155 Y140.079 E135.87387
G0 F6000 X230.589 Y140.079
G1 F900 X239.469 Y148.959 E136.45863
G0 F6000 X238.903 Y148.959
G1 F900 X230.023 Y140.079 E137.04339
G0 F6000 X229.458 Y140.079
G1 F900 X238.338 Y148.959 E137.62816
G0 F6000 X237.772 Y148.959
G1 F900 X228.892 Y140.079 E138.21292
G0 F6000 X228.326 Y140.079
G1 F900 X237.206 Y148.959 E138.79768
G0 F6000 X236.641 Y148.959
G1 F900 X227.761 Y140.079 E139.38245
G0 F6000 X227.195 Y140.079
G1 F900 X236.075 Y148.959 E139.96721
G0 F6000 X235.509 Y148.959
G1 F900 X226.629 Y140.079 E140.55197
G0 F6000 X226.064 Y140.079
G1 F900 X234.944 Y148.959 E141.13674
G0 F6000 X234.378 Y148.959
G1 F900 X225.498 Y140.079 E141.7215
G0 F6000 X224.932 Y140.079
G1 F900 X233.812 Y148.959 E142.30626
G0 F6000 X233.246 Y148.959
G1 F900 X224.367 Y140.079 E142.89099
G0 F6000 X223.801 Y140.079
G1 F900 X232.681 Y148.959 E143.47576
G0 F6000 X232.115 Y148.959
G1 F900 X223.235 Y140.079 E144.06052
G0 F6000 X222.67 Y140.079
G1 F900 X231.549 Y148.959 E144.64525
G0 F6000 X230.984 Y148.959
G1 F900 X222.104 Y140.079 E145.23001
G0 F6000 X221.538 Y140.079
G1 F900 X230.418 Y148.959 E145.81478
G0 F6000 X229.852 Y148.959
G1 F900 X220.972 Y140.079 E146.39954
G0 F6000 X220.407 Y140.079
G1 F900 X229.287 Y148.959 E146.9843
G0 F6000 X228.721 Y148.959
G1 F900 X219.841 Y140.079 E147.56906
G0 F6000 X219.275 Y140.079
G1 F900 X228.155 Y148.959 E148.15383
G0 F6000 X227.59 Y148.959
G1 F900 X218.71 Y140.079 E148.73859
G0 F6000 X218.144 Y140.079
G1 F900 X227.024 Y148.959 E149.32335
G0 F6000 X226.458 Y148.959
G1 F900 X217.578 Y140.079 E149.90812
G0 F6000 X217.013 Y140.079
G1 F900 X225.893 Y148.959 E150.49288
G0 F6000 X225.327 Y148.959
G1 F900 X216.447 Y140.079 E151.07764
G0 F6000 X215.881 Y140.079
G1 F900 X224.761 Y148.959 E151.66241
G0 F6000 X224.195 Y148.959
G1 F900 X215.316 Y140.079 E152.24714
G0 F6000 X214.75 Y140.079
G1 F900 X223.63 Y148.959 E152.8319
G0 F6000 X223.064 Y148.959
G1 F900 X214.184 Y140.079 E153.41666
G0 F6000 X213.619 Y140.079
G1 F900 X222.498 Y148.959 E154.00139
G0 F6000 X221.933 Y148.959
G1 F900 X213.053 Y140.079 E154.58616
G0 F6000 X212.487 Y140.079
G1 F900 X221.367 Y148.959 E155.17092
G0 F6000 X220.801 Y148.959
G1 F900 X211.922 Y140.079 E155.75565
G0 F6000 X211.356 Y140.079
G1 F900 X220.236 Y148.959 E156.34041
G0 F6000 X219.67 Y148.959
G1 F900 X210.79 Y140.079 E156.92518
G0 F6000 X210.224 Y140.079
G1 F900 X219.104 Y148.959 E157.50994
G0 F6000 X218.539 Y148.959
G1 F900 X209.659 Y140.079 E158.0947
G0 F6000 X209.093 Y140.079
G1 F900 X217.973 Y148.959 E158.67947
G0 F6000 X217.407 Y148.959
G1 F900 X208.527 Y140.079 E159.26423
G0 F6000 X207.962 Y140.079
G1 F900 X216.842 Y148.959 E159.84899
G0 F6000 X216.276 Y148.959
G1 F900 X207.396 Y140.079 E160.43376
G0 F6000 X206.83 Y140.079
G1 F900 X215.71 Y148.959 E161.01852
G0 F6000 X215.145 Y148.959
G1 F900 X206.265 Y140.079 E161.60328
G0 F6000 X205.699 Y140.079
G1 F900 X214.579 Y148.959 E162.18805
G0 F6000 X214.013 Y148.959
G1 F900 X205.133 Y140.079 E162.77281
G0 F6000 X204.568 Y140.079
G1 F900 X213.447 Y148.959 E163.35754
G0 F6000 X212.882 Y148.959
G1 F900 X204.002 Y140.079 E163.9423
G0 F6000 X203.436 Y140.079
G1 F900 X212.316 Y148.959 E164.52706
G0 F6000 X211.75 Y148.959
G1 F900 X202.871 Y140.079 E165.1118
G0 F6000 X202.305 Y140.079
G1 F900 X211.185 Y148.959 E165.69656
G0 F6000 X210.619 Y148.959
G1 F900 X201.739 Y140.079 E166.28132
G0 F6000 X201.174 Y140.079
G1 F900 X210.053 Y148.959 E166.86605
G0 F6000 X209.488 Y148.959
G1 F900 X200.608 Y140.079 E167.45081
G0 F6000 X200.042 Y140.079
G1 F900 X208.922 Y148.959 E168.03558
G0 F6000 X208.356 Y148.959
G1 F900 X199.476 Y140.079 E168.62034
G0 F6000 X198.911 Y140.079
G1 F900 X207.791 Y148.959 E169.2051
G0 F6000 X207.225 Y148.959
G1 F900 X198.345 Y140.079 E169.78987
G0 F6000 X197.779 Y140.079
G1 F900 X206.659 Y148.959 E170.37463
G0 F6000 X206.094 Y148.959
G1 F900 X197.214 Y140.079 E170.95939
G0 F6000 X196.648 Y140.079
G1 F900 X205.528 Y148.959 E171.54416
G0 F6000 X204.962 Y148.959
G1 F900 X196.082 Y140.079 E172.12892
G0 F6000 X195.517 Y140.079
G1 F900 X204.512 Y149.075 E172.72129
G0 F6000 X203.947 Y149.075
G1 F900 X194.951 Y140.079 E173.31369
G0 F6000 X194.385 Y140.079
G1 F900 X203.381 Y149.075 E173.90609
G0 F6000 X202.815 Y149.075
G1 F900 X193.82 Y140.079 E174.49846
G0 F6000 X193.254 Y140.079
G1 F900 X202.25 Y149.075 E175.09086
G0 F6000 X201.684 Y149.075
G1 F900 X192.688 Y140.079 E175.68327
G0 F6000 X192.123 Y140.079
G1 F900 X201.118 Y149.075 E176.27564
G0 F6000 X200.553 Y149.075
G1 F900 X191.557 Y140.079 E176.86804
G0 F6000 X190.991 Y140.079
G1 F900 X199.987 Y149.075 E177.46044
G0 F6000 X199.421 Y149.075
G1 F900 X190.425 Y140.079 E178.05284
G0 F6000 X189.86 Y140.079
G1 F900 X198.856 Y149.075 E178.64524
G0 F6000 X198.29 Y149.075
G1 F900 X189.294 Y140.079 E179.23764
G0 F6000 X188.728 Y140.079
G1 F900 X197.724 Y149.075 E179.83005
G0 F6000 X197.159 Y149.076
G1 F900 X188.163 Y140.079 E180.42248
G0 F6000 X187.597 Y140.079
G1 F900 X196.594 Y149.076 E181.01495
G0 F6000 X196.028 Y149.076
G1 F900 X187.031 Y140.079 E181.60742
G0 F6000 X186.466 Y140.079
G1 F900 X195.462 Y149.076 E182.19985
G0 F6000 X194.897 Y149.076
G1 F900 X185.9 Y140.079 E182.79232
G0 F6000 X185.334 Y140.079
G1 F900 X194.331 Y149.076 E183.38479
G0 F6000 X193.765 Y149.076
G1 F900 X184.769 Y140.079 E183.97722
G0 F6000 X184.203 Y140.079
G1 F900 X193.199 Y149.076 E184.56966
G0 F6000 X192.634 Y149.076
G1 F900 X183.637 Y140.079 E185.16213
G0 F6000 X183.072 Y140.079
G1 F900 X192.068 Y149.076 E185.75456
G0 F6000 X191.502 Y149.076
G1 F900 X182.506 Y140.079 E186.347
G0 F6000 X181.94 Y140.079
G1 F900 X190.937 Y149.076 E186.93946
G0 F6000 X190.254 Y148.959
G1 F900 X181.375 Y140.079 E187.52419
G0 F6000 X180.809 Y140.079
G1 F900 X189.688 Y148.959 E188.10892
G0 F6000 X189.122 Y148.959
G1 F900 X180.243 Y140.079 E188.69365
G0 F6000 X179.677 Y140.079
G1 F900 X188.557 Y148.959 E189.27842
G0 F6000 X187.991 Y148.959
G1 F900 X179.112 Y140.079 E189.86315
G0 F6000 X178.546 Y140.079
G1 F900 X187.425 Y148.959 E190.44788
G0 F6000 X186.86 Y148.959
G1 F900 X177.98 Y140.079 E191.03264
G0 F6000 X177.415 Y140.079
G1 F900 X186.294 Y148.959 E191.61737
G0 F6000 X185.728 Y148.959
G1 F900 X176.849 Y140.079 E192.2021
G0 F6000 X176.283 Y140.079
G1 F900 X185.162 Y148.959 E192.78683
G0 F6000 X184.597 Y148.959
G1 F900 X175.718 Y140.079 E193.37156
G0 F6000 X175.152 Y140.079
G1 F900 X184.031 Y148.959 E193.95629
G0 F6000 X183.465 Y148.959
G1 F900 X174.586 Y140.079 E194.54102
G0 F6000 X174.021 Y140.079
G1 F900 X182.9 Y148.959 E195.12575
G0 F6000 X182.334 Y148.959
G1 F900 X173.455 Y140.079 E195.71048
G0 F6000 X172.889 Y140.079
G1 F900 X181.768 Y148.959 E196.29521
G0 F6000 X181.203 Y148.959
G1 F900 X172.324 Y140.079 E196.87994
G0 F6000 X171.758 Y140.079
G1 F900 X180.637 Y148.959 E197.46467
G0 F6000 X180.071 Y148.959
G1 F900 X171.192 Y140.079 E198.0494
G0 F6000 X170.626 Y140.079
G1 F900 X179.506 Y148.959 E198.63417
G0 F6000 X178.94 Y148.959
G1 F900 X170.061 Y140.079 E199.2189
G0 F6000 X169.495 Y140.079
G1 F900 X178.374 Y148.959 E199.80363
G0 F6000 X177.809 Y148.959
G1 F900 X168.929 Y140.079 E200.38839
G0 F6000 X168.364 Y140.079
G1 F900 X177.243 Y148.959 E200.97312
G0 F6000 X176.677 Y148.959
G1 F900 X167.798 Y140.079 E201.55785
G0 F6000 X167.232 Y140.079
G1 F900 X176.112 Y148.959 E202.14261
G0 F6000 X175.546 Y148.959
G1 F900 X166.667 Y140.079 E202.72734
G0 F6000 X166.101 Y140.079
G1 F900 X174.98 Y148.959 E203.31207
G0 F6000 X174.414 Y148.959
G1 F900 X165.535 Y140.079 E203.8968
G0 F6000 X164.97 Y140.079
G1 F900 X173.849 Y148.959 E204.48153
G0 F6000 X173.283 Y148.959
G1 F900 X164.404 Y140.079 E205.06627
G0 F6000 X163.838 Y140.079
G1 F900 X172.717 Y148.959 E205.651
G0 F6000 X172.152 Y148.959
G1 F900 X163.273 Y140.079 E206.23573
G0 F6000 X162.707 Y140.079
G1 F900 X171.586 Y148.959 E206.82046
G0 F6000 X171.02 Y148.959
G1 F900 X162.141 Y140.079 E207.40519
G0 F6000 X161.576 Y140.079
G1 F900 X170.455 Y148.959 E207.98992
G0 F6000 X169.889 Y148.959
G1 F900 X161.01 Y140.079 E208.57465
G0 F6000 X160.444 Y140.079
G1 F900 X169.323 Y148.959 E209.15938
G0 F6000 X168.758 Y148.959
G1 F900 X159.878 Y140.079 E209.74414
G0 F6000 X159.313 Y140.079
G1 F900 X168.192 Y148.959 E210.32887
G0 F6000 X167.626 Y148.959
G1 F900 X158.747 Y140.079 E210.9136
G0 F6000 X158.181 Y140.079
G1 F900 X167.061 Y148.959 E211.49836
G0 F6000 X166.495 Y148.959
G1 F900 X157.616 Y140.079 E212.08309
G0 F6000 X157.05 Y140.079
G1 F900 X165.929 Y148.959 E212.66782
G0 F6000 X165.363 Y148.959
G1 F900 X156.484 Y140.079 E213.25255
G0 F6000 X155.919 Y140.079
